storage/filter_uploads/40d5739e-fa09-4ea6-8ecf-1e8fb5297d13.cube
TITLE "Python Generated LUT"
LUT_3D_SIZE 33
0.000000 0.000000 0.000000
0.000000 0.000000 0.000000
0.000000 0.000000 0.000000
0.000000 0.000000 0.000000
0.000000 0.000000 0.000000
0.000000 0.000000 0.000000
0.000000 0.000000 0.000000
0.000000 0.000000 0.000658
0.000000 0.000000 0.068566
0.000000 0.000000 0.108678
0.000000 0.000000 0.138550
0.000000 0.000000 0.169622
0.000000 0.000000 0.202821
0.000000 0.000000 0.237613
0.000000 0.000000 0.273629
0.000000 0.000000 0.310585
0.000000 0.000000 0.348353
0.000000 0.000000 0.386682
0.000000 0.000000 0.425511
0.000000 0.000000 0.464785
0.000000 0.000000 0.504321
0.000000 0.000000 0.544237
0.000000 0.000000 0.584353
0.000000 0.000000 0.624752
0.000000 0.000000 0.665338
0.000000 0.000000 0.706124
0.000000 0.005962 0.747164
0.000000 0.019964 0.788200
0.000000 0.030115 0.829577
0.000000 0.036146 0.870990
0.000000 0.040397 0.912454
0.000000 0.045255 0.954035
0.000000 0.050881 0.995716
0.000000 0.000000 0.000000
0.000000 0.000000 0.000000
0.000000 0.000000 0.000000
0.000000 0.000000 0.000000
0.000000 0.000000 0.000000
0.000000 0.000000 0.000000
0.000000 0.000000 0.000000
0.000000 0.000000 0.000000
0.000000 0.000000 0.067717
0.000000 0.000000 0.108015
0.000000 0.000000 0.137895
0.000000 0.000000 0.169005
0.000000 0.000000 0.202240
0.000000 0.000000 0.237150
0.000000 0.000000 0.273230
0.000000 0.000000 0.310356
0.000000 0.000000 0.348129
0.000000 0.000000 0.386533
0.000000 0.000000 0.425311
0.000000 0.000000 0.464606
0.000000 0.000000 0.504162
0.000000 0.000000 0.543968
0.000000 0.000000 0.584187
0.000000 0.000000 0.624554
0.000000 0.000000 0.665243
0.000000 0.000000 0.705996
0.000000 0.005019 0.747000
0.000000 0.018417 0.788089
0.000000 0.027974 0.829377
0.000000 0.033408 0.870751
0.000000 0.037757 0.912357
0.000000 0.042940 0.953990
0.000000 0.048827 0.995724
0.000000 0.000000 0.000000
0.000000 0.000000 0.000000
0.000000 0.000000 0.000000
0.000000 0.000000 0.000000
0.000000 0.000000 0.000000
0.000000 0.000000 0.000000
0.000000 0.000000 0.000000
0.000000 0.000000 0.000000
0.000000 0.000000 0.066708
0.000000 0.000000 0.107300
0.000000 0.000000 0.137289
0.000000 0.000000 0.168369
0.000000 0.000000 0.201736
0.000000 0.000000 0.236711
0.000000 0.000000 0.272905
0.000000 0.000000 0.309976
0.000000 0.000000 0.347798
0.000000 0.000000 0.386199
0.000000 0.000000 0.425046
0.000000 0.000000 0.464363
0.000000 0.000000 0.503939
0.000000 0.000000 0.543767
0.000000 0.000000 0.584006
0.000000 0.000000 0.624477
0.000000 0.000000 0.665134
0.000000 0.000000 0.705940
0.000000 0.003965 0.746911
0.000000 0.016638 0.787964
0.000000 0.025395 0.829306
0.000000 0.030466 0.870733
0.000000 0.034923 0.912299
0.000000 0.040110 0.953838
0.000000 0.046243 0.995624
0.000000 0.000000 0.000000
0.000000 0.000000 0.000000
0.000000 0.000000 0.000000
0.000000 0.000000 0.000000
0.000000 0.000000 0.000000
0.000000 0.000000 0.000000
0.000000 0.000000 0.000000
0.000000 0.000000 0.000000
0.000000 0.000000 0.065060
0.000000 0.000000 0.106212
0.000000 0.000000 0.136288
0.000000 0.000000 0.167553
0.000000 0.000000 0.200972
0.000000 0.000000 0.236047
0.000000 0.000000 0.272340
0.000000 0.000000 0.309449
0.000000 0.000000 0.347372
0.000000 0.000000 0.385822
0.000000 0.000000 0.424791
0.000000 0.000000 0.463975
0.000000 0.000000 0.503671
0.000000 0.000000 0.543572
0.000000 0.000000 0.583834
0.000000 0.000000 0.624191
0.000000 0.000000 0.664867
0.000000 0.000000 0.705691
0.000000 0.002216 0.746766
0.000000 0.013957 0.787926
0.000000 0.021828 0.829141
0.000000 0.026286 0.870621
0.000000 0.030797 0.912147
0.000000 0.036101 0.953736
0.000000 0.042470 0.995481
0.000000 0.000000 0.000000
0.000000 0.000000 0.000000
0.000000 0.000000 0.000000
0.000000 0.000000 0.000000
0.000000 0.000000 0.000000
0.000000 0.000000 0.000000
0.000000 0.000000 0.000000
0.000000 0.000000 0.000000
0.000000 0.000000 0.062903
0.000000 0.000000 0.104590
0.000000 0.000000 0.134983
0.000000 0.000000 0.166332
0.000000 0.000000 0.199989
0.000000 0.000000 0.235223
0.000000 0.000000 0.271603
0.000000 0.000000 0.308849
0.000000 0.000000 0.346806
0.000000 0.000000 0.385280
0.000000 0.000000 0.424218
0.000000 0.000000 0.463569
0.000000 0.000000 0.503260
0.000000 0.000000 0.543286
0.000000 0.000000 0.583406
0.000000 0.000000 0.623969
0.000000 0.000000 0.664580
0.000000 0.000000 0.705422
0.000000 0.000000 0.746515
0.000000 0.009958 0.787691
0.000000 0.016606 0.829014
0.000000 0.020754 0.870507
0.000000 0.025232 0.911991
0.000000 0.030901 0.953684
0.000000 0.037279 0.995241
0.000000 0.000000 0.000000
0.000000 0.000000 0.000000
0.000000 0.000000 0.000000
0.000000 0.000000 0.000000
0.000000 0.000000 0.000000
0.000000 0.000000 0.000000
0.000000 0.000000 0.000000
0.000000 0.000000 0.000000
0.000000 0.000000 0.059801
0.000000 0.000000 0.102524
0.000000 0.000000 0.133332
0.000000 0.000000 0.164947
0.000000 0.000000 0.198911
0.000000 0.000000 0.234303
0.000000 0.000000 0.270714
0.000000 0.000000 0.308104
0.000000 0.000000 0.346192
0.000000 0.000000 0.384695
0.000000 0.000000 0.423779
0.000000 0.000000 0.463226
0.000000 0.000000 0.502888
0.000000 0.000000 0.542829
0.000000 0.000000 0.583073
0.000000 0.000000 0.623625
0.000000 0.000000 0.664309
0.000000 0.000000 0.705135
0.000000 0.000000 0.746247
0.000000 0.004415 0.787441
0.000000 0.009619 0.828691
0.000000 0.013608 0.870193
0.000000 0.018304 0.911686
0.000000 0.024065 0.953390
0.000000 0.030836 0.995144
0.057064 0.000000 0.000000
0.049710 0.000000 0.000000
0.040299 0.000000 0.000000
0.024743 0.000000 0.000000
0.008044 0.000000 0.000000
0.000000 0.000000 0.000000
0.000000 0.000000 0.000000
0.000000 0.000000 0.000000
0.000000 0.000000 0.055917
0.000000 0.000000 0.100060
0.001062 0.000000 0.131531
0.000000 0.000000 0.163500
0.000000 0.000000 0.197636
0.000000 0.000000 0.233152
0.000000 0.000000 0.269827
0.000000 0.000000 0.307303
0.000000 0.000000 0.345410
0.000000 0.000000 0.384039
0.000000 0.000000 0.423068
0.000000 0.000000 0.462536
0.000000 0.000000 0.502297
0.000000 0.000000 0.542416
0.000000 0.000000 0.582704
0.000000 0.000000 0.623162
0.000000 0.000000 0.663969
0.000000 0.000000 0.704780
0.000000 0.000000 0.745874
0.000000 0.000000 0.787138
0.000000 0.000955 0.828546
0.000000 0.005117 0.869967
0.000000 0.010020 0.911562
0.000000 0.015696 0.953130
0.000000 0.022522 0.994801
0.109336 0.000000 0.000000
0.104052 0.000000 0.000000
0.097720 0.000000 0.000000
0.087656 0.000000 0.000000
0.075497 0.000000 0.000000
0.065083 0.000000 0.000000
0.057012 0.000000 0.000000
0.051722 0.000000 0.000000
0.049440 0.000000 0.051552
0.050133 0.000000 0.097537
0.052802 0.000000 0.129496
0.048559 0.000000 0.161901
0.032018 0.000000 0.196286
0.001148 0.000000 0.232010
0.000000 0.000000 0.268851
0.000000 0.000000 0.306464
0.000000 0.000000 0.344643
0.000000 0.000000 0.383280
0.000000 0.000000 0.422464
0.000000 0.000000 0.461885
0.000000 0.000000 0.501798
0.000000 0.000000 0.541884
0.000000 0.000000 0.582134
0.000000 0.000000 0.622767
0.000000 0.000000 0.663476
0.000000 0.000000 0.704497
0.000000 0.000000 0.745576
0.000000 0.000000 0.786822
0.000000 0.000000 0.828060
0.000000 0.000000 0.869632
0.000000 0.000000 0.911051
0.000000 0.005956 0.952773
0.000000 0.013032 0.994453
0.142934 0.000000 0.000000
0.138389 0.000000 0.000000
0.133033 0.000000 0.000000
0.124811 0.000000 0.000000
0.115288 0.000000 0.000000
0.107139 0.000000 0.000000
0.100302 0.000000 0.000000
0.095289 0.000000 0.000000
0.092032 0.000000 0.046884
0.090511 0.000000 0.094871
0.090289 0.000000 0.127471
0.085712 0.000000 0.160210
0.073411 0.000000 0.194884
0.048107 0.000000 0.230763
0.000000 0.000000 0.267664
0.000000 0.000000 0.305371
0.000000 0.000000 0.343695
0.000000 0.000000 0.382544
0.000000 0.000000 0.421665
0.000000 0.000000 0.461245
0.000000 0.000000 0.501054
0.000000 0.000000 0.541370
0.000000 0.000000 0.581715
0.000000 0.000000 0.622306
0.000000 0.000000 0.663054
0.000000 0.000000 0.703974
0.000000 0.000000 0.745087
0.000000 0.000000 0.786401
0.000000 0.000000 0.827749
0.000000 0.000000 0.869238
0.000000 0.000000 0.910863
0.000000 0.000000 0.952503
0.000000 0.001969 0.994100
0.169415 0.000000 0.000000
0.165272 0.000000 0.000000
0.160439 0.000000 0.000000
0.153177 0.000000 0.000000
0.144982 0.000000 0.000000
0.137700 0.000000 0.000000
0.131463 0.000000 0.000000
0.126488 0.000000 0.000000
0.122695 0.000000 0.042193
0.120263 0.000000 0.092192
0.118784 0.000000 0.125482
0.113991 0.000000 0.158507
0.103321 0.000000 0.193385
0.083905 0.000000 0.229563
0.047256 0.000000 0.266606
0.000000 0.000000 0.304420
0.000000 0.000000 0.342783
0.000000 0.000000 0.381664
0.000000 0.000000 0.420879
0.000000 0.000000 0.460542
0.000000 0.000000 0.500505
0.000000 0.000000 0.540709
0.000000 0.000000 0.581065
0.000000 0.000000 0.621698
0.000000 0.000000 0.662535
0.000000 0.000000 0.703492
0.000000 0.000000 0.744727
0.000000 0.000000 0.785921
0.000000 0.000000 0.827327
0.000000 0.000000 0.868837
0.000000 0.000000 0.910378
0.000000 0.000000 0.952079
0.000000 0.000000 0.993739
0.191581 0.000000 0.000000
0.187763 0.000000 0.000000
0.183294 0.000000 0.000000
0.176660 0.000000 0.000000
0.169376 0.000000 0.000000
0.162690 0.000000 0.000000
0.156805 0.000000 0.000000
0.151827 0.000000 0.000000
0.147845 0.000000 0.037370
0.144918 0.000000 0.089375
0.142635 0.000000 0.123316
0.137651 0.000000 0.156799
0.127866 0.000000 0.191918
0.111363 0.000000 0.228187
0.083658 0.000000 0.265444
0.031590 0.000000 0.303285
0.000000 0.000000 0.341824
0.000000 0.000000 0.380741
0.000000 0.000000 0.420128
0.000000 0.000000 0.459747
0.000000 0.000000 0.499864
0.000000 0.000000 0.540086
0.000000 0.000000 0.580539
0.000000 0.000000 0.621265
0.000000 0.000000 0.662056
0.000000 0.000000 0.703050
0.000000 0.000000 0.744170
0.000000 0.000000 0.785523
0.000000 0.000000 0.826807
0.000000 0.000000 0.868376
0.000000 0.000000 0.909886
0.000000 0.000000 0.951555
0.000000 0.000000 0.993370
0.210871 0.000000 0.000000
0.207255 0.000000 0.000000
0.203100 0.000000 0.000000
0.196940 0.000000 0.000000
0.190243 0.000000 0.000000
0.184088 0.000000 0.000000
0.178484 0.000000 0.000000
0.173641 0.000000 0.000000
0.169523 0.000000 0.032467
0.166249 0.000000 0.086678
0.163523 0.000000 0.121347
0.158495 0.000000 0.155027
0.149239 0.000000 0.190462
0.134999 0.000000 0.226860
0.114717 0.000000 0.264316
0.084891 0.000000 0.302251
0.030555 0.000000 0.340924
0.000000 0.000000 0.379905
0.000000 0.000000 0.419386
0.000000 0.000000 0.459169
0.000000 0.000000 0.499102
0.000000 0.000000 0.539340
0.000000 0.000000 0.579887
0.000000 0.000000 0.620568
0.000000 0.000000 0.661534
0.000000 0.000000 0.702465
0.000000 0.000000 0.743741
0.000000 0.000000 0.784973
0.000000 0.000000 0.826367
0.000000 0.000000 0.867904
0.000000 0.000000 0.909383
0.000000 0.000000 0.951021
0.000000 0.000000 0.992899
0.228034 0.000000 0.000000
0.224601 0.000000 0.000000
0.220669 0.000000 0.000000
0.214931 0.000000 0.000000
0.208772 0.000000 0.000000
0.202953 0.000000 0.000000
0.197620 0.000000 0.000000
0.192902 0.000000 0.000000
0.188731 0.000000 0.027838
0.185282 0.000000 0.083926
0.182328 0.000000 0.119172
0.177870 0.000000 0.153449
0.170894 0.000000 0.189034
0.160909 0.000000 0.225659
0.146946 0.000000 0.263278
0.127777 0.000000 0.301329
0.100057 0.000000 0.340014
0.054765 0.000000 0.379103
0.000000 0.000000 0.418630
0.000000 0.000000 0.458317
0.000000 0.000000 0.498483
0.000000 0.000000 0.538820
0.000000 0.000000 0.579245
0.000000 0.000000 0.620017
0.000000 0.000000 0.660919
0.000000 0.000000 0.702005
0.000000 0.000000 0.743161
0.000000 0.000000 0.784412
0.000000 0.000000 0.825774
0.000000 0.000000 0.867331
0.000000 0.000000 0.908923
0.000000 0.000000 0.950624
0.000000 0.000000 0.992377
0.243548 0.000000 0.000000
0.240292 0.000000 0.000000
0.236525 0.000000 0.000000
0.231134 0.000000 0.000000
0.225422 0.000000 0.000000
0.219979 0.000000 0.000000
0.214937 0.000000 0.000000
0.210535 0.000000 0.000000
0.207036 0.000000 0.023600
0.204608 0.000000 0.081254
0.203199 0.000000 0.117339
0.200876 0.000000 0.151850
0.196473 0.000000 0.187704
0.189771 0.000000 0.224612
0.180280 0.000000 0.262200
0.167251 0.000000 0.300476
0.149907 0.000000 0.339194
0.125940 0.000000 0.378341
0.091119 0.000000 0.417785
0.025853 0.000000 0.457708
0.000000 0.000000 0.497848
0.000000 0.000000 0.538069
0.000000 0.000000 0.578664
0.000000 0.000000 0.619419
0.000000 0.000000 0.660338
0.000000 0.000000 0.701354
0.000000 0.000000 0.742528
0.000000 0.000000 0.783746
0.000000 0.000000 0.825270
0.000000 0.000000 0.866706
0.000000 0.000000 0.908358
0.000000 0.000000 0.950082
0.000000 0.000000 0.991898
0.258794 0.000000 0.000000
0.255792 0.000000 0.000000
0.252413 0.000000 0.000000
0.247678 0.000000 0.000000
0.242885 0.000000 0.000000
0.238431 0.000000 0.000000
0.234598 0.000000 0.000000
0.231517 0.000000 0.000000
0.229290 0.000000 0.019805
0.228197 0.000000 0.078927
0.228216 0.000000 0.115649
0.227342 0.000000 0.150559
0.224951 0.000000 0.186620
0.220762 0.000000 0.223573
0.214437 0.000000 0.261324
0.205598 0.000000 0.299655
0.193827 0.000000 0.338445
0.178597 0.000000 0.377675
0.158354 0.000000 0.417235
0.130821 0.000000 0.457058
0.090477 0.000000 0.497166
0.009553 0.000000 0.537463
0.000000 0.000000 0.577990
0.000000 0.000000 0.618848
0.000000 0.000000 0.659699
0.000000 0.000000 0.700734
0.000000 0.000000 0.741928
0.000000 0.000000 0.783167
0.000000 0.000000 0.824571
0.000000 0.000000 0.866118
0.000000 0.000000 0.907793
0.000000 0.000000 0.949432
0.000000 0.000000 0.991218
0.278192 0.000000 0.000000
0.275681 0.000000 0.000000
0.272699 0.000000 0.000000
0.268794 0.000000 0.000000
0.264915 0.000000 0.000000
0.261461 0.000000 0.000000
0.258671 0.000000 0.000000
0.256610 0.000000 0.000000
0.255487 0.000000 0.016982
0.255411 0.000000 0.077212
0.256339 0.000000 0.114271
0.256713 0.000000 0.149516
0.255805 0.000000 0.185757
0.253397 0.000000 0.222916
0.249304 0.000000 0.260636
0.243393 0.000000 0.298965
0.235379 0.000000 0.337849
0.224838 0.000000 0.377078
0.211254 0.000000 0.416620
0.193639 0.000000 0.456479
0.170689 0.000000 0.496525
0.139379 0.000000 0.536841
0.091458 0.000000 0.577437
0.000000 0.000000 0.618095
0.000000 0.000000 0.658965
0.000000 0.000000 0.700020
0.000000 0.000000 0.741234
0.000000 0.000000 0.782495
0.000000 0.000000 0.823867
0.000000 0.000000 0.865528
0.000000 0.000000 0.907173
0.000000 0.000000 0.948836
0.000000 0.000000 0.990686
0.301757 0.000000 0.000000
0.299550 0.000000 0.000000
0.297053 0.000000 0.000000
0.293844 0.000000 0.000000
0.290838 0.000000 0.000000
0.288195 0.000000 0.000000
0.286210 0.000000 0.000000
0.285008 0.000000 0.000000
0.284704 0.000000 0.015051
0.285394 0.000000 0.075769
0.287039 0.000000 0.113300
0.288189 0.000000 0.148600
0.288310 0.000000 0.185043
0.287273 0.000000 0.222222
0.284922 0.000000 0.260029
0.281005 0.000000 0.298459
0.275346 0.000000 0.337289
0.267622 0.000000 0.376358
0.257577 0.000000 0.416001
0.244668 0.000000 0.455805
0.228561 0.000000 0.495873
0.208063 0.000000 0.536211
0.181620 0.000000 0.576697
0.145767 0.000000 0.617376
0.090468 0.000000 0.658354
0.000000 0.000000 0.699432
0.000000 0.000000 0.740530
0.000000 0.000000 0.781903
0.000000 0.000000 0.823299
0.000000 0.000000 0.864698
0.000000 0.000000 0.906458
0.000000 0.000000 0.948183
0.000000 0.000000 0.989910
0.328701 0.000000 0.000000
0.326752 0.000000 0.000000
0.324654 0.000000 0.000000
0.322084 0.000000 0.000000
0.319696 0.000000 0.000000
0.317817 0.000000 0.000000
0.316550 0.000000 0.000000
0.315965 0.000000 0.000000
0.316289 0.000000 0.014059
0.317567 0.000000 0.074906
0.319667 0.000000 0.112650
0.321380 0.000000 0.148163
0.322271 0.000000 0.184604
0.322079 0.000000 0.221752
0.320570 0.000000 0.259522
0.317905 0.000000 0.297841
0.313717 0.000000 0.336666
0.307854 0.000000 0.375850
0.300090 0.000000 0.415324
0.290401 0.000000 0.455110
0.278075 0.000000 0.495205
0.263108 0.000000 0.535439
0.244319 0.000000 0.576033
0.220954 0.000000 0.616738
0.191250 0.000000 0.657605
0.150702 0.000000 0.698656
0.085795 0.000000 0.739778
0.000000 0.000000 0.781264
0.000000 0.000000 0.822633
0.000000 0.000000 0.864148
0.000000 0.000000 0.905735
0.000000 0.000000 0.947487
0.000000 0.000000 0.989279
0.358298 0.000000 0.000000
0.356719 0.000000 0.000000
0.354924 0.000000 0.000000
0.352934 0.000000 0.000000
0.351028 0.000000 0.000000
0.349670 0.000000 0.000000
0.348867 0.000000 0.000000
0.348748 0.000000 0.000000
0.349392 0.000000 0.013837
0.350901 0.000000 0.074376
0.353130 0.000000 0.112066
0.355147 0.000000 0.147677
0.356386 0.000000 0.184078
0.356597 0.000000 0.221295
0.355873 0.000000 0.259066
0.354080 0.000000 0.297292
0.350975 0.000000 0.336129
0.346544 0.000000 0.375191
0.340500 0.000000 0.414659
0.332863 0.000000 0.454434
0.323309 0.000000 0.494516
0.311524 0.000000 0.534782
0.297295 0.000000 0.575356
0.279901 0.000000 0.615956
0.258674 0.000000 0.656850
0.232441 0.000000 0.698015
0.199123 0.000000 0.739113
0.153631 0.000000 0.780344
0.077553 0.000000 0.821829
0.000000 0.000000 0.863406
0.000000 0.000000 0.905021
0.000000 0.000000 0.946690
0.000000 0.000000 0.988602
0.389338 0.000000 0.000000
0.387966 0.000000 0.000000
0.386396 0.000000 0.000000
0.384802 0.000000 0.000000
0.383439 0.000000 0.000000
0.382337 0.000000 0.000000
0.381886 0.000000 0.000000
0.382066 0.000000 0.000000
0.382940 0.000000 0.013168
0.384610 0.000000 0.073668
0.386929 0.000000 0.111430
0.388993 0.000000 0.147035
0.390456 0.000000 0.183550
0.391195 0.000000 0.220669
0.390919 0.000000 0.258459
0.389772 0.000000 0.296800
0.387537 0.000000 0.335545
0.384077 0.000000 0.374621
0.379403 0.000000 0.414047
0.373354 0.000000 0.453821
0.365576 0.000000 0.493815
0.356180 0.000000 0.534151
0.344823 0.000000 0.574629
0.331283 0.000000 0.615296
0.314996 0.000000 0.656172
0.295306 0.000000 0.697230
0.271890 0.000000 0.738306
0.242889 0.000000 0.779743
0.205586 0.000000 0.821115
0.154777 0.000000 0.862668
0.064357 0.000000 0.904349
0.000000 0.000000 0.945993
0.000000 0.000000 0.987972
0.421120 0.000000 0.000000
0.419909 0.000000 0.000000
0.418671 0.000000 0.000000
0.417334 0.000000 0.000000
0.416306 0.000000 0.000000
0.415555 0.000000 0.000000
0.415296 0.000000 0.000000
0.415685 0.000000 0.000000
0.416737 0.000000 0.012229
0.418433 0.000000 0.072643
0.420854 0.000000 0.110541
0.423047 0.000000 0.146389
0.424678 0.000000 0.182913
0.425652 0.000000 0.220129
0.425848 0.000000 0.257855
0.425219 0.000000 0.296094
0.423634 0.000000 0.334831
0.421069 0.000000 0.373886
0.417349 0.000000 0.413327
0.412396 0.000000 0.453106
0.406213 0.000000 0.493131
0.398457 0.000000 0.533380
0.389192 0.000000 0.573931
0.378198 0.000000 0.614585
0.364982 0.000000 0.655446
0.349453 0.000000 0.696487
0.331291 0.000000 0.737631
0.309507 0.000000 0.778960
0.283884 0.000000 0.820347
0.252155 0.000000 0.861877
0.211296 0.000000 0.903534
0.154052 0.000000 0.945392
0.043619 0.000000 0.987200
0.453521 0.000000 0.000000
0.452511 0.000000 0.000000
0.451541 0.000000 0.000000
0.450483 0.000000 0.000000
0.449662 0.000000 0.000000
0.449175 0.000000 0.000000
0.449101 0.000000 0.000000
0.449691 0.000000 0.000000
0.450773 0.000000 0.010768
0.452576 0.000000 0.071207
0.455076 0.000000 0.109489
0.457217 0.000000 0.145545
0.459010 0.000000 0.182247
0.460233 0.000000 0.219437
0.460727 0.000000 0.257193
0.460535 0.000000 0.295474
0.459402 0.000000 0.334223
0.457499 0.000000 0.373274
0.454536 0.000000 0.412693
0.450587 0.000000 0.452441
0.445453 0.000000 0.492474
0.439138 0.000000 0.532758
0.431490 0.000000 0.573173
0.422242 0.000000 0.613819
0.411436 0.000000 0.654755
0.398757 0.000000 0.695731
0.384085 0.000000 0.736860
0.366754 0.000000 0.778259
0.346691 0.000000 0.819538
0.323019 0.000000 0.861138
0.294642 0.000000 0.902865
0.259983 0.000000 0.944556
0.215550 0.000000 0.986432
0.486492 0.000000 0.000000
0.485549 0.000000 0.000000
0.484757 0.000000 0.000000
0.483964 0.000000 0.000000
0.483394 0.000000 0.000000
0.483055 0.000000 0.000000
0.483190 0.000000 0.000000
0.483844 0.000000 0.000000
0.485122 0.000000 0.008846
0.486962 0.000000 0.069576
0.489344 0.000000 0.108176
0.491581 0.000000 0.144487
0.493474 0.000000 0.181311
0.494829 0.000000 0.218626
0.495564 0.000000 0.256442
0.495671 0.000000 0.294736
0.495089 0.000000 0.333470
0.493611 0.000000 0.372527
0.491360 0.000000 0.412014
0.488181 0.000000 0.451741
0.483978 0.000000 0.491742
0.478685 0.000000 0.531902
0.472265 0.000000 0.572402
0.464468 0.000000 0.613130
0.455388 0.000000 0.654008
0.444860 0.000000 0.694838
0.432529 0.000000 0.736040
0.418343 0.000000 0.777284
0.401901 0.000000 0.818866
0.383006 0.000000 0.860304
0.361252 0.000000 0.901958
0.335408 0.000000 0.943719
0.304643 0.000000 0.985574
0.519863 0.000000 0.000000
0.519075 0.000000 0.000000
0.518511 0.000000 0.000000
0.517841 0.000000 0.000000
0.517416 0.000000 0.000000
0.517283 0.000000 0.000000
0.517520 0.000000 0.000000
0.518326 0.000000 0.000000
0.519608 0.000000 0.006498
0.521445 0.000000 0.067481
0.523960 0.000000 0.106704
0.526142 0.000000 0.143306
0.528097 0.000000 0.180378
0.529515 0.000000 0.217750
0.530457 0.000000 0.255661
0.530811 0.000000 0.293995
0.530586 0.000000 0.332733
0.529578 0.000000 0.371765
0.527856 0.000000 0.411257
0.525279 0.000000 0.451049
0.521785 0.000000 0.491027
0.517342 0.000000 0.531155
0.511933 0.000000 0.571614
0.505331 0.000000 0.612294
0.497647 0.000000 0.653118
0.488731 0.000000 0.694114
0.478207 0.000000 0.735309
0.466271 0.000000 0.776577
0.452561 0.000000 0.818005
0.436911 0.000000 0.859518
0.418800 0.000000 0.901154
0.398397 0.000000 0.942934
0.374575 0.000000 0.984714
0.553651 0.000000 0.000000
0.553067 0.000000 0.000000
0.552554 0.000000 0.000000
0.552114 0.000000 0.000000
0.551786 0.000000 0.000000
0.551762 0.000000 0.000000
0.552113 0.000000 0.000000
0.553044 0.000000 0.000000
0.554280 0.000000 0.003488
0.556224 0.000000 0.064948
0.558631 0.000000 0.104802
0.560794 0.000000 0.141977
0.562824 0.000000 0.179254
0.564373 0.000000 0.216917
0.565458 0.000000 0.254842
0.565966 0.000000 0.293243
0.566053 0.000000 0.332007
0.565391 0.000000 0.371030
0.564124 0.000000 0.410491
0.562023 0.000000 0.450154
0.559162 0.000000 0.490196
0.555465 0.000000 0.530379
0.550841 0.000000 0.570804
0.545259 0.000000 0.611526
0.538651 0.000000 0.652219
0.530906 0.000000 0.693299
0.521946 0.000000 0.734525
0.511718 0.000000 0.775732
0.499892 0.000000 0.817238
0.486604 0.000000 0.858685
0.471560 0.000000 0.900344
0.454452 0.000000 0.942109
0.434977 0.000000 0.984056
0.587663 0.000000 0.000000
0.587256 0.000000 0.000000
0.586914 0.000000 0.000000
0.586512 0.000000 0.000000
0.586405 0.000000 0.000000
0.586555 0.000000 0.000000
0.586985 0.000000 0.000000
0.587902 0.000000 0.000000
0.589215 0.000000 0.000000
0.591183 0.000000 0.061736
0.593458 0.000000 0.102558
0.595670 0.000000 0.140374
0.597715 0.000000 0.178044
0.599274 0.000000 0.215746
0.600544 0.000000 0.253972
0.601213 0.000000 0.292350
0.601462 0.000000 0.331158
0.601204 0.000000 0.370267
0.600186 0.000000 0.409634
0.598477 0.000000 0.449386
0.596221 0.000000 0.489375
0.593111 0.000000 0.529621
0.589181 0.000000 0.570102
0.584464 0.000000 0.610656
0.578637 0.000000 0.651527
0.572044 0.000000 0.692423
0.564238 0.000000 0.733595
0.555326 0.000000 0.774886
0.545140 0.000000 0.816420
0.533741 0.000000 0.857805
0.520659 0.000000 0.899542
0.506126 0.000000 0.941330
0.489649 0.000000 0.983116
0.622150 0.000000 0.000000
0.621798 0.000000 0.000000
0.621537 0.000000 0.000000
0.621311 0.000000 0.000000
0.621238 0.000000 0.000000
0.621491 0.000000 0.000000
0.621975 0.000000 0.000000
0.622876 0.000000 0.000000
0.624343 0.000000 0.000000
0.626259 0.000000 0.057990
0.628514 0.000000 0.100043
0.630703 0.000000 0.138588
0.632670 0.000000 0.176610
0.634267 0.000000 0.214589
0.635635 0.000000 0.252785
0.636474 0.000000 0.291357
0.636926 0.000000 0.330180
0.636869 0.000000 0.369443
0.636183 0.000000 0.408884
0.634868 0.000000 0.448612
0.633025 0.000000 0.488556
0.630354 0.000000 0.528797
0.627028 0.000000 0.569206
0.622955 0.000000 0.609814
0.617960 0.000000 0.650734
0.612143 0.000000 0.691672
0.605317 0.000000 0.732798
0.597621 0.000000 0.774125
0.588742 0.000000 0.815460
