storage/filter_uploads/40d5739e-fa09-4ea6-8ecf-1e8fb5297d13.cube
TITLE "Python Generated LUT"
LUT_3D_SIZE 9
0.000000 0.000000 0.000000
0.000000 0.000000 0.000000
0.000000 0.000000 0.068566
0.000000 0.000000 0.202821
0.000000 0.000000 0.348353
0.000000 0.000000 0.504321
0.000000 0.000000 0.665338
0.000000 0.030115 0.829577
0.000000 0.050881 0.995716
0.000000 0.000000 0.000000
0.000000 0.000000 0.000000
0.000000 0.000000 0.062903
0.000000 0.000000 0.199989
0.000000 0.000000 0.346806
0.000000 0.000000 0.503260
0.000000 0.000000 0.664580
0.000000 0.016606 0.829014
0.000000 0.037279 0.995241
0.142934 0.000000 0.000000
0.115288 0.000000 0.000000
0.092032 0.000000 0.046884
0.073411 0.000000 0.194884
0.000000 0.000000 0.343695
0.000000 0.000000 0.501054
0.000000 0.000000 0.663054
0.000000 0.000000 0.827749
0.000000 0.001969 0.994100
0.228034 0.000000 0.000000
0.208772 0.000000 0.000000
0.188731 0.000000 0.027838
0.170894 0.000000 0.189034
0.100057 0.000000 0.340014
0.000000 0.000000 0.498483
0.000000 0.000000 0.660919
0.000000 0.000000 0.825774
0.000000 0.000000 0.992377
0.301757 0.000000 0.000000
0.290838 0.000000 0.000000
0.284704 0.000000 0.015051
0.288310 0.000000 0.185043
0.275346 0.000000 0.337289
0.228561 0.000000 0.495873
0.090468 0.000000 0.658354
0.000000 0.000000 0.823299
0.000000 0.000000 0.989910
0.421120 0.000000 0.000000
0.416306 0.000000 0.000000
0.416737 0.000000 0.012229
0.424678 0.000000 0.182913
0.423634 0.000000 0.334831
0.406213 0.000000 0.493131
0.364982 0.000000 0.655446
0.283884 0.000000 0.820347
0.043619 0.000000 0.987200
0.553651 0.000000 0.000000
0.551786 0.000000 0.000000
0.554280 0.000000 0.003488
0.562824 0.000000 0.179254
0.566053 0.000000 0.332007
0.559162 0.000000 0.490196
0.538651 0.000000 0.652219
0.499892 0.000000 0.817238
0.434977 0.000000 0.984056
0.691785 0.000000 0.000000
0.691567 0.000000 0.000000
0.694933 0.000000 0.000000
0.702974 0.000000 0.173201
0.707921 0.000000 0.328235
0.706113 0.000000 0.486887
0.695084 0.000000 0.648912
0.672392 0.000000 0.813674
0.634989 0.000000 0.980504
0.833514 0.000000 0.000000
0.833984 0.000000 0.000000
0.837648 0.000000 0.000000
0.845142 0.000000 0.163679
0.850588 0.000000 0.323369
0.851421 0.000000 0.482927
0.845540 0.000000 0.645220
0.831364 0.000000 0.810038
0.807030 0.000000 0.976823
0.000000 0.000000 0.000000
0.000000 0.000000 0.000000
0.000000 0.000000 0.047370
0.000000 0.000000 0.195555
0.000000 0.000000 0.344648
0.000000 0.000000 0.501946
0.000000 0.028788 0.663632
0.000000 0.060548 0.828263
0.000000 0.083047 0.994595
0.000000 0.000000 0.000000
0.000000 0.000000 0.000000
0.000000 0.000000 0.043031
0.000000 0.000000 0.194117
0.000000 0.000000 0.343628
0.000000 0.000000 0.501190
0.000000 0.023237 0.663097
0.000000 0.050521 0.827848
0.000000 0.075806 0.994148
0.145155 0.000000 0.000000
0.118308 0.000000 0.000000
0.095629 0.000000 0.033237
0.075603 0.000000 0.190955
0.000000 0.000000 0.341474
0.000000 0.000000 0.499532
0.000000 0.000000 0.661865
0.000000 0.020873 0.826632
0.000000 0.055087 0.993074
0.226703 0.000000 0.000000
0.208210 0.000000 0.000000
0.189893 0.000000 0.021089
0.179681 0.000000 0.187038
0.129043 0.000000 0.338953
0.000000 0.000000 0.497605
0.000000 0.000000 0.660054
0.000000 0.000000 0.824785
0.000000 0.009054 0.991498
0.311072 0.000000 0.000000
0.302017 0.000000 0.000000
0.298467 0.000000 0.014351
0.303938 0.000000 0.184665
0.293300 0.000000 0.336843
0.252562 0.000000 0.495325
0.145072 0.000000 0.657633
0.000000 0.000000 0.822526
0.000000 0.000000 0.989084
0.430861 0.000000 0.000000
0.426871 0.000000 0.000000
0.427962 0.000000 0.009661
0.436080 0.000000 0.182124
0.435543 0.000000 0.334345
0.419308 0.000000 0.492726
0.380910 0.000000 0.654859
0.306171 0.000000 0.819769
0.128180 0.000000 0.986514
0.561556 0.000000 0.000000
0.560213 0.000000 0.000000
0.563099 0.000000 0.000000
0.571485 0.000000 0.177861
0.574846 0.000000 0.331339
0.568479 0.000000 0.489664
0.548901 0.000000 0.651820
0.511667 0.000000 0.816543
0.449350 0.000000 0.983402
0.698416 0.000000 0.000000
0.698338 0.000000 0.000000
0.701961 0.000000 0.000000
0.710004 0.000000 0.171246
0.714968 0.000000 0.327529
0.713293 0.000000 0.486278
0.702644 0.000000 0.648590
0.680535 0.000000 0.813216
0.644146 0.000000 0.980002
0.839152 0.000000 0.000000
0.839669 0.000000 0.000000
0.843415 0.000000 0.000000
0.850888 0.000000 0.160952
0.856329 0.000000 0.322539
0.857230 0.000000 0.482440
0.851565 0.000000 0.644802
0.837597 0.000000 0.809564
0.813883 0.000000 0.976409
0.000000 0.052136 0.000000
0.000000 0.053421 0.000000
0.000000 0.052256 0.023193
0.000000 0.054730 0.188441
0.000000 0.074823 0.340407
0.000000 0.093689 0.498703
0.000000 0.111835 0.660832
0.000000 0.131770 0.825486
0.000000 0.153473 0.992007
0.067150 0.046430 0.000000
0.019023 0.049811 0.000000
0.000000 0.051952 0.021961
0.000000 0.057480 0.187893
0.000000 0.075784 0.339895
0.000000 0.091479 0.498285
0.000000 0.109233 0.660435
0.000000 0.129197 0.825139
0.000000 0.151183 0.991713
0.160833 0.045405 0.000000
0.139103 0.051142 0.000000
0.118899 0.057444 0.018711
0.101048 0.063988 0.186605
0.000000 0.072195 0.339003
0.000000 0.085277 0.497345
0.000000 0.102450 0.659565
0.000000 0.122686 0.824357
0.000000 0.145275 0.990852
0.235223 0.053027 0.000000
0.222922 0.056907 0.000000
0.215616 0.058907 0.014719
0.217176 0.057428 0.184962
0.191550 0.061400 0.337598
0.094704 0.072359 0.495814
0.000000 0.089462 0.657991
0.000000 0.110772 0.822817
0.000000 0.134937 0.989254
0.334508 0.042191 0.000000
0.329062 0.044996 0.000000
0.328728 0.044275 0.008893
0.335668 0.038150 0.182601
0.329154 0.038377 0.335551
0.298285 0.048741 0.493862
0.224415 0.067853 0.656014
0.000000 0.092199 0.820775
0.000000 0.119580 0.987329
0.451921 0.015871 0.000000
0.449789 0.017358 0.000000
0.452312 0.014326 0.000000
0.460667 0.005085 0.178931
0.461411 0.001538 0.332909
0.448125 0.009341 0.491407
0.415143 0.031207 0.653501
0.352547 0.064979 0.818161
0.227636 0.098927 0.984801
0.579832 0.000000 0.000000
0.579367 0.000000 0.000000
0.582930 0.000000 0.000000
0.591371 0.000000 0.173533
0.595039 0.000000 0.329707
0.589842 0.000000 0.488573
0.572150 0.000000 0.650602
0.538398 0.023807 0.815322
0.482217 0.073066 0.981990
0.714090 0.000000 0.000000
0.714504 0.000000 0.000000
0.718439 0.000000 0.000000
0.726375 0.000000 0.165491
0.731432 0.000000 0.325529
0.730251 0.000000 0.485150
0.720508 0.000000 0.647412
0.699894 0.000000 0.812185
0.665770 0.041346 0.978810
0.852527 0.000000 0.000000
0.853423 0.000000 0.000000
0.857436 0.000000 0.000000
0.864664 0.000000 0.153655
0.870031 0.000000 0.319948
0.871194 0.000000 0.481026
0.865951 0.000000 0.643809
0.852772 0.000000 0.808646
0.830120 0.012922 0.975364
0.081856 0.185339 0.000000
0.049601 0.187265 0.000000
0.013167 0.190269 0.007988
0.000000 0.193963 0.183717
0.000000 0.200567 0.337459
0.000000 0.210407 0.495705
0.000000 0.223061 0.657579
0.000000 0.238077 0.821939
0.000000 0.255412 0.988542
0.112183 0.188055 0.000000
0.091191 0.189881 0.000000
0.073305 0.192489 0.006401
0.067405 0.195634 0.183153
0.000000 0.201706 0.337038
0.000000 0.210991 0.495296
0.000000 0.223248 0.657245
0.000000 0.238045 0.821746
0.000000 0.255098 0.988153
0.174223 0.193795 0.000000
0.163696 0.195157 0.000000
0.158810 0.197069 0.001970
0.162587 0.199197 0.181805
0.128350 0.204140 0.336265
0.000000 0.212286 0.494546
0.000000 0.223587 0.656375
0.000000 0.237765 0.821008
0.000000 0.254482 0.987411
0.261164 0.200724 0.000000
0.256538 0.201705 0.000000
0.257343 0.202769 0.000000
0.265020 0.203707 0.179508
0.253892 0.207208 0.334801
0.207543 0.213903 0.493256
0.044473 0.224014 0.655216
0.000000 0.237276 0.819704
0.000000 0.253442 0.986235
0.365658 0.207096 0.000000
0.364040 0.207706 0.000000
0.367201 0.207972 0.000000
0.376161 0.207882 0.175978
0.374252 0.210015 0.332563
0.353597 0.215339 0.491466
0.304165 0.224125 0.653375
0.193941 0.236455 0.818029
0.000000 0.252000 0.984478
0.482290 0.211957 0.000000
0.482160 0.212307 0.000000
0.486426 0.212037 0.000000
0.495258 0.211120 0.170687
0.497622 0.212212 0.329713
0.488213 0.216349 0.489050
0.462257 0.224096 0.651233
0.413012 0.235527 0.815805
0.323879 0.250561 0.982411
0.607480 0.215847 0.000000
0.608021 0.215904 0.000000
0.612503 0.215182 0.000000
0.621099 0.213785 0.163420
0.625294 0.214152 0.325994
0.621735 0.217408 0.486046
0.607015 0.224226 0.648385
0.578076 0.235021 0.813178
0.530063 0.249365 0.979659
0.738651 0.219509 0.000000
0.739650 0.219435 0.000000
0.744143 0.218466 0.000000
0.751957 0.216742 0.152907
0.757059 0.216601 0.321154
0.756613 0.219340 0.482570
0.748373 0.225547 0.645366
0.730112 0.235669 0.810125
0.699255 0.249824 0.976889
0.874302 0.224567 0.000000
0.875379 0.224330 0.000000
0.879771 0.223212 0.000000
0.886801 0.221343 0.138235
0.892186 0.220896 0.315071
0.893635 0.223225 0.478345
0.889085 0.228973 0.641717
0.877258 0.238645 0.806763
0.856332 0.252298 0.973574
0.054603 0.332457 0.000000
0.046194 0.333147 0.000000
0.062692 0.334302 0.000000
0.088063 0.336097 0.170881
0.047388 0.339851 0.331916
0.000000 0.345911 0.491528
0.000000 0.354346 0.653570
0.000000 0.365028 0.817850
0.000000 0.377890 0.984281
0.110284 0.334075 0.000000
0.106717 0.334730 0.000000
0.117257 0.335782 0.000000
0.135464 0.337440 0.170216
0.114564 0.340981 0.331595
0.000000 0.346865 0.491214
0.000000 0.355078 0.653217
0.000000 0.365565 0.817699
0.000000 0.378301 0.984025
0.194698 0.337828 0.000000
0.193600 0.338377 0.000000
0.201684 0.339179 0.000000
0.215471 0.340589 0.168374
0.207132 0.343677 0.330655
0.156663 0.349047 0.490496
0.000000 0.356835 0.652602
0.000000 0.366920 0.816996
0.000000 0.379310 0.983378
0.293388 0.343479 0.000000
0.293695 0.343894 0.000000
0.300781 0.344475 0.000000
0.312292 0.345378 0.165128
0.310797 0.347873 0.328928
0.286842 0.352574 0.489231
0.223703 0.359668 0.651460
0.000000 0.369189 0.816070
0.000000 0.381088 0.982492
0.401942 0.350387 0.000000
0.402856 0.350639 0.000000
0.409402 0.350874 0.000000
0.419673 0.351348 0.160066
0.421759 0.353239 0.326558
0.409889 0.357238 0.487465
0.377019 0.363495 0.649826
0.310975 0.372337 0.814552
0.162686 0.383542 0.980912
0.518461 0.357782 0.000000
0.519815 0.357943 0.000000
0.525867 0.357926 0.000000
0.535003 0.357968 0.152737
0.539142 0.359378 0.323360
0.533694 0.362655 0.485024
0.514618 0.368238 0.647907
0.477252 0.376250 0.812545
0.412415 0.386767 0.979098
0.641683 0.365590 0.000000
0.643180 0.365614 0.000000
0.648731 0.365312 0.000000
0.656978 0.365090 0.142387
0.661941 0.366076 0.318918
0.660212 0.368775 0.481986
0.648965 0.373635 0.645254
0.625377 0.380983 0.810117
0.585857 0.390894 0.976671
0.770133 0.373736 0.000000
0.771689 0.373612 0.000000
0.776824 0.373291 0.000000
0.784214 0.372893 0.128050
0.789556 0.373441 0.313390
0.790128 0.375728 0.478318
0.783694 0.380089 0.642151
0.768194 0.386866 0.807313
0.741530 0.396145 0.973976
0.902901 0.382628 0.000000
0.904399 0.382560 0.000000
0.909059 0.381972 0.000000
0.915727 0.381515 0.107595
0.921146 0.381903 0.306480
0.923053 0.383809 0.473813
0.919580 0.387727 0.638516
0.909255 0.394052 0.804029
0.890567 0.402839 0.970996
0.100514 0.482390 0.000000
0.108301 0.482701 0.000000
0.136131 0.483161 0.000000
0.163402 0.484215 0.142550
0.165374 0.486463 0.321748
0.121960 0.490410 0.485305
0.000000 0.496073 0.648453
0.000000 0.503716 0.813226
0.000000 0.513189 0.979583
0.150304 0.483512 0.000000
0.156097 0.483720 0.000000
0.177032 0.484181 0.000000
0.199199 0.485151 0.141493
0.201859 0.487394 0.321435
0.169904 0.491195 0.485049
0.025723 0.496779 0.648212
0.000000 0.504315 0.813008
0.000000 0.513739 0.979455
0.234001 0.486135 0.000000
0.238090 0.486336 0.000000
0.252659 0.486710 0.000000
0.269285 0.487600 0.138971
0.272963 0.489596 0.320306
0.253748 0.493250 0.484314
0.192852 0.498661 0.647767
0.000000 0.505951 0.812500
0.000000 0.515196 0.978962
0.333971 0.490385 0.000000
0.337166 0.490584 0.000000
0.347886 0.490807 0.000000
0.360882 0.491549 0.134291
0.365457 0.493343 0.318468
0.354772 0.496650 0.483077
0.320495 0.501764 0.646715
0.244589 0.508672 0.811521
0.000000 0.517562 0.978088
0.443157 0.496203 0.000000
0.445781 0.496338 0.000000
0.454363 0.496410 0.000000
0.465085 0.496973 0.126792
0.470186 0.498467 0.315799
0.464869 0.501431 0.481312
0.444179 0.506077 0.645133
0.401067 0.512629 0.810205
0.321048 0.521093 0.976837
0.558966 0.503131 0.000000
0.561336 0.503182 0.000000
0.568587 0.503235 0.000000
0.577703 0.503501 0.115850
0.583200 0.504769 0.311884
0.581225 0.507319 0.478777
0.568414 0.511555 0.643127
0.540818 0.517621 0.808365
0.493492 0.525655 0.975066
0.680472 0.511040 0.000000
0.682629 0.511030 0.000000
0.688846 0.510925 0.000000
0.696747 0.511079 0.099738
0.702451 0.512074 0.306852
0.702622 0.514319 0.475574
0.694649 0.518111 0.640630
0.676387 0.523740 0.806227
0.644611 0.531294 0.972996
0.806714 0.519803 0.000000
0.808650 0.519766 0.000000
0.814070 0.519524 0.000000
0.821076 0.519590 0.075455
0.826645 0.520329 0.300515
0.828127 0.522259 0.471572
0.823604 0.525699 0.637523
0.811213 0.530859 0.803378
0.788945 0.537959 0.970349
0.936879 0.529418 0.000000
0.938677 0.529336 0.000000
0.943493 0.529075 0.000000
0.949670 0.528994 0.032577
0.955063 0.529622 0.292452
0.957501 0.531309 0.466854
0.955133 0.534419 0.633932
0.946671 0.539294 0.800393
0.930542 0.545937 0.967496
0.182282 0.634692 0.000000
0.192030 0.634717 0.000000
0.215154 0.635017 0.000000
0.238403 0.635624 0.080413
0.250057 0.637160 0.305117
0.240416 0.639768 0.476226
0.194468 0.643840 0.641980
0.013072 0.649290 0.807601
0.000000 0.656406 0.974374
0.218743 0.635457 0.000000
0.226940 0.635574 0.000000
0.246490 0.635708 0.000000
0.267202 0.636395 0.078544
0.277841 0.637859 0.304569
0.269784 0.640498 0.475946
0.231273 0.644408 0.641805
0.121342 0.649889 0.807489
0.000000 0.656948 0.974213
0.290528 0.637419 0.000000
0.296581 0.637458 0.000000
0.311716 0.637680 0.000000
0.328087 0.638228 0.073381
0.337362 0.639624 0.303427
0.332173 0.642213 0.475243
0.304423 0.646011 0.641242
0.237983 0.651400 0.807068
0.005258 0.658281 0.973774
0.384282 0.640729 0.000000
0.388841 0.640779 0.000000
0.400412 0.640916 0.000000
0.413234 0.641434 0.063786
0.421338 0.642704 0.301330
0.418749 0.645108 0.473973
0.400132 0.648844 0.640201
0.357915 0.653996 0.806132
0.273879 0.660715 0.972959
0.490263 0.645406 0.000000
0.493773 0.645389 0.000000
0.502797 0.645488 0.000000
0.513329 0.645969 0.046329
0.520516 0.647080 0.298072
0.519849 0.649281 0.471960
0.507687 0.652809 0.638838
0.479278 0.657771 0.804941
0.427856 0.664232 0.971807
0.603806 0.651326 0.000000
0.606813 0.651306 0.000000
0.614145 0.651381 0.000000
0.622905 0.651700 0.017639
0.629421 0.652714 0.293681
0.630328 0.654726 0.469406
0.622547 0.657968 0.636800
0.602938 0.662710 0.803318
0.567957 0.668834 0.970306
0.723211 0.658391 0.000000
0.725760 0.658304 0.000000
0.731770 0.658305 0.000000
0.739363 0.658572 0.000000
0.745474 0.659516 0.287829
0.747359 0.661341 0.466048
0.742527 0.664294 0.634250
0.728876 0.668692 0.801070
0.704114 0.674641 0.968394
0.847212 0.666503 0.000000
0.849443 0.666463 0.000000
0.854529 0.666381 0.000000
0.861144 0.666552 0.000000
0.866833 0.667393 0.280247
0.869331 0.668988 0.461789
0.866728 0.671779 0.631157
0.857152 0.675933 0.798517
0.839046 0.681523 0.966060
0.974987 0.675684 0.000000
0.976962 0.675578 0.000000
0.981412 0.675513 0.000000
0.987188 0.675637 0.000000
0.992513 0.676279 0.270655
0.995507 0.677752 0.456731
0.994433 0.680341 0.627515
0.987797 0.684197 0.795290
0.974364 0.689485 0.963216
0.272712 0.788674 0.000000
0.280988 0.788791 0.000000
0.297423 0.788903 0.000000
0.316493 0.789362 0.000000
0.330501 0.790440 0.278969
0.331995 0.792262 0.463272
0.314524 0.795258 0.633544
0.267023 0.799301 0.801049
0.149426 0.804610 0.968481
0.300209 0.789313 0.000000
0.307524 0.789345 0.000000
0.322521 0.789456 0.000000
0.340017 0.789925 0.000000
0.352945 0.791029 0.278601
0.354731 0.792856 0.463038
0.339195 0.795755 0.633366
0.296789 0.799850 0.800788
0.200838 0.805092 0.968332
0.359584 0.790848 0.000000
0.365607 0.790881 0.000000
0.378122 0.790993 0.000000
0.392908 0.791390 0.000000
0.404153 0.792438 0.277127
0.406298 0.794290 0.462414
0.393601 0.797096 0.632764
0.360038 0.801136 0.800445
0.291297 0.806371 0.967859
0.443975 0.793410 0.000000
0.448631 0.793462 0.000000
0.458487 0.793516 0.000000
0.470732 0.793934 0.000000
0.480311 0.794940 0.274638
0.482587 0.796708 0.460944
0.473501 0.799488 0.631840
0.448528 0.803372 0.799449
0.400147 0.808540 0.967200
0.543843 0.797224 0.000000
0.547498 0.797195 0.000000
0.555410 0.797285 0.000000
0.565350 0.797685 0.000000
0.573587 0.798578 0.270892
0.576337 0.800251 0.458848
0.570160 0.802889 0.630292
0.551812 0.806675 0.798312
0.517216 0.811772 0.966108
0.653439 0.802173 0.000000
0.656374 0.802170 0.000000
0.662878 0.802200 0.000000
0.671210 0.802588 0.000000
0.678434 0.803405 0.265537
0.681329 0.804974 0.456035
0.677419 0.807527 0.628237
0.664253 0.811138 0.796635
0.638734 0.816061 0.964734
0.769700 0.808274 0.000000
0.772215 0.808278 0.000000
0.777588 0.808290 0.000000
0.784727 0.808577 0.000000
0.791094 0.809379 0.258556
0.794255 0.810847 0.452534
0.792083 0.813249 0.625823
0.782473 0.816718 0.794576
0.763551 0.821386 0.962873
0.891029 0.815421 0.000000
0.893213 0.815445 0.000000
0.897735 0.815450 0.000000
0.903850 0.815697 0.000000
0.909696 0.816359 0.249399
0.913021 0.817785 0.447896
0.912046 0.820014 0.622511
0.905210 0.823343 0.792030
0.890984 0.827862 0.960521
1.000000 0.823720 0.000000
1.000000 0.823697 0.000000
1.000000 0.823766 0.000000
1.000000 0.823962 0.000000
1.000000 0.824561 0.237828
1.000000 0.825866 0.442291
1.000000 0.827942 0.618769
1.000000 0.831087 0.788936
1.000000 0.835381 0.957865
0.363988 0.944255 0.000000
0.369720 0.944262 0.000000
0.382080 0.944385 0.000000
0.397469 0.944755 0.000000
0.411007 0.945490 0.239318
0.417230 0.946848 0.445577
0.411701 0.949049 0.622472
0.389008 0.952170 0.792854
0.340178 0.956306 0.961559
0.385909 0.944697 0.000000
0.391170 0.944714 0.000000
0.402632 0.944853 0.000000
0.417248 0.945221 0.000000
0.430225 0.945956 0.238558
0.436279 0.947321 0.445281
0.430885 0.949473 0.622245
0.409966 0.952601 0.792549
0.364846 0.956753 0.961465
0.435410 0.945891 0.000000
0.440047 0.945905 0.000000
0.449976 0.946065 0.000000
0.462935 0.946343 0.000000
0.474444 0.947119 0.236894
0.480166 0.948508 0.444533
0.476004 0.950677 0.621724
0.457735 0.953697 0.792068
0.419677 0.957804 0.961023
0.510250 0.947987 0.000000
0.513965 0.948024 0.000000
0.522262 0.948100 0.000000
0.533208 0.948417 0.000000
0.543262 0.949226 0.233729
0.548392 0.950491 0.442889
0.545433 0.952626 0.620718
0.530842 0.955629 0.791351
0.500365 0.959670 0.960356
0.602713 0.951096 0.000000
0.605885 0.951124 0.000000
0.612650 0.951243 0.000000
0.621811 0.951504 0.000000
0.630292 0.952202 0.228769
0.635120 0.953541 0.440747
0.633299 0.955592 0.619150
0.621960 0.958546 0.790184
0.598498 0.962517 0.959362
0.706917 0.955186 0.000000
0.709584 0.955221 0.000000
0.715280 0.955369 0.000000
0.722979 0.955593 0.000000
0.730348 0.956278 0.222037
0.734759 0.957551 0.437769
0.733818 0.959571 0.617154
0.725342 0.962395 0.788559
0.707199 0.966289 0.957951
0.819397 0.960458 0.000000
0.821498 0.960436 0.000000
0.826310 0.960524 0.000000
0.832935 0.960827 0.000000
0.839349 0.961432 0.213116
0.843543 0.962653 0.433813
0.843410 0.964559 0.614412
0.837182 0.967304 0.786436
0.823118 0.971169 0.956354
0.937713 0.966714 0.000000
0.939551 0.966703 0.000000
0.943545 0.966775 0.000000
0.949353 0.967062 0.000000
0.955001 0.967617 0.200897
0.959099 0.968792 0.428809
0.959474 0.970654 0.611150
0.954928 0.973384 0.784062
0.944005 0.976962 0.954086
1.000000 0.973985 0.000000
1.000000 0.974029 0.000000
1.000000 0.974104 0.000000
1.000000 0.974330 0.000000
1.000000 0.974924 0.185463
1.000000 0.975950 0.422830
1.000000 0.977748 0.607148
1.000000 0.980348 0.780837
1.000000 0.983902 0.951486
