storage/filter_uploads/c7d2fa34-be9b-41a2-abb8-42927eddbc6c.cube
TITLE "Generated by Resolve"
LUT_3D_SIZE 9
0 0 0
0.0972 0.00410468 0.00410468
0.204547 0.00340276 0.00340276
0.332692 0 0
0.463798 0 0
0.59234 0 0
0.705577 0 0
0.80293 0 0
0.89604 0 0
0.00753796 0.102876 0.00753796
0.102754 0.104997 0.00965896
0.210361 0.104555 0.00921645
0.340291 0.0993362 0.00399786
0.47451 0.0946822 0
0.607126 0.0923018 0
0.725048 0.0957809 0.000442512
0.827359 0.105394 0.0100557
0.925277 0.11783 0.0224918
0.00772107 0.210163 0.00772107
0.106432 0.215778 0.0133211
0.218357 0.219669 0.0172122
0.35314 0.219287 0.0168307
0.492302 0.219593 0.0171359
0.629557 0.221851 0.0194095
0.7514 0.229252 0.0267948
0.856504 0.241642 0.0392004
0.955932 0.255589 0.0531472
0.00479133 0.338872 0.00479133
0.1084 0.349371 0.0152895
0.224765 0.357702 0.0236057
0.363073 0.360861 0.0267796
0.504555 0.36347 0.0293889
0.642878 0.366812 0.0327306
0.764569 0.374044 0.0399634
0.86894 0.385718 0.0516365
0.967895 0.399176 0.0651102
0.0140078 0.482109 0.0140078
0.119463 0.494469 0.0263676
0.236454 0.50341 0.0353094
0.374243 0.50605 0.0379492
0.515068 0.508003 0.0399023
0.65304 0.510979 0.0428779
0.774838 0.518318 0.0502327
0.879286 0.530083 0.0619821
0.977661 0.542962 0.0748608
0.0275883 0.625971 0.0275883
0.132494 0.637766 0.0393835
0.249271 0.64651 0.0481117
0.387304 0.649378 0.0509957
0.527977 0.651194 0.0527962
0.665095 0.65333 0.0549477
0.785382 0.659159 0.0607767
0.887663 0.668742 0.0703593
0.983185 0.678782 0.0803845
0.0538643 0.764126 0.0538491
0.158343 0.775509 0.0652323
0.274037 0.783169 0.0728923
0.410315 0.784283 0.0740215
0.548577 0.783673 0.0733959
0.682612 0.782727 0.0724651
0.799283 0.784939 0.0746777
0.897642 0.7906 0.0803235
0.989151 0.796628 0.0863661
0.09131 0.89221 0.09131
0.193149 0.900938 0.100038
0.305531 0.905272 0.104387
0.438056 0.902647 0.101762
0.572335 0.898054 0.0971542
0.702403 0.893141 0.0922408
0.815198 0.891478 0.0905928
0.909819 0.8934 0.0925154
0.997925 0.896025 0.0951247
0.124544 1 0.124544
0.22237 1 0.129274
0.330831 1 0.129686
0.45951 1 0.123217
0.590158 0.996826 0.114992
0.71696 0.988647 0.106798
0.826993 0.984222 0.102388
0.919432 0.983963 0.102129
1 0.984939 0.103105
0.00134279 0.00134279 0.101793
0.0978256 0.00471504 0.105165
0.204898 0.00375372 0.104204
0.332998 0 0.0971542
0.46424 0 0.0895247
0.593027 0 0.0833295
0.70663 0 0.0824903
0.804486 0 0.0876326
0.898085 0 0.0957504
0.00788891 0.103227 0.108339
0.103258 0.105501 0.110613
0.211154 0.105364 0.110475
0.341527 0.100572 0.105684
0.476234 0.0964065 0.101518
0.609354 0.0945296 0.0996414
0.727779 0.0985122 0.103624
0.830579 0.108614 0.113725
0.928847 0.121401 0.126513
0.0091249 0.211582 0.109575
0.108324 0.217685 0.115679
0.220768 0.22208 0.120073
0.356069 0.222217 0.120211
0.495659 0.22295 0.120958
0.633219 0.225513 0.123507
0.75523 0.233066 0.131075
0.860365 0.245518 0.143511
0.959731 0.259388 0.157397
0.00788891 0.34197 0.108339
0.111879 0.35285 0.119234
0.228489 0.361425 0.127794
0.366934 0.364706 0.131075
0.508415 0.36733 0.1337
0.646616 0.37055 0.136919
0.768124 0.3776 0.143969
0.872602 0.38938 0.155749
0.971603 0.402899 0.169268
0.0178836 0.485985 0.118334
0.123293 0.498299 0.130648
0.240116 0.507073 0.139422
0.377859 0.509651 0.142
0.518776 0.511696 0.14406
0.656764 0.514702 0.147051
0.7785 0.521996 0.154345
0.882841 0.533623 0.165988
0.981018 0.546319 0.178683
0.0312352 0.629618 0.131685
0.136202 0.641474 0.143542
0.252964 0.650217 0.152285
0.390936 0.65301 0.155077
0.531456 0.654673 0.156741
0.668376 0.656596 0.158663
0.788373 0.66215 0.164233
0.890318 0.671397 0.173465
0.985428 0.681025 0.183093
0.057435 0.767712 0.157885
0.161761 0.778927 0.169116
0.277226 0.786343 0.176532
0.413199 0.787167 0.177356
0.55108 0.786191 0.176364
0.684718 0.784833 0.175006
0.800961 0.786633 0.176822
0.898924 0.791897 0.182071
0.990066 0.797543 0.187732
0.0940719 0.894957 0.194522
0.195499 0.903288 0.202853
0.307485 0.907225 0.20679
0.439597 0.904189 0.203754
0.57348 0.899199 0.198764
0.703166 0.893904 0.193469
0.815595 0.891875 0.19144
0.909911 0.893492 0.193057
0.997772 0.895857 0.195422
0.125948 1 0.226398
0.223392 1 0.230732
0.331456 1 0.230762
0.4598 1 0.223941
0.590158 0.996826 0.215442
0.716731 0.988418 0.207034
0.826581 0.98381 0.202426
0.918914 0.983444 0.20206
1 0.984344 0.20296
0.00180056 0.00180056 0.211017
0.097734 0.00462348 0.21384
0.204639 0.00349432 0.212696
0.332753 0 0.205676
0.464149 0 0.198199
0.59324 0 0.192294
0.707271 0 0.191882
0.8056 0 0.197513
0.899718 0 0.206134
0.00767529 0.103029 0.216892
0.103273 0.105516 0.219379
0.211505 0.105699 0.219577
0.342351 0.101381 0.215259
0.477546 0.0977188 0.211582
0.611154 0.0963455 0.210208
0.730114 0.100847 0.214725
0.833341 0.111376 0.225254
0.931914 0.124468 0.238331
0.0101167 0.212573 0.219333
0.109819 0.219165 0.225925
0.222766 0.224079 0.230838
0.358572 0.22472 0.231479
0.498558 0.225834 0.232593
0.636362 0.228656 0.235416
0.758495 0.236332 0.243091
0.863645 0.248798 0.255558
0.96289 0.262547 0.269306
0.010544 0.344625 0.21976
0.11487 0.355856 0.230976
0.231693 0.36463 0.239765
0.370214 0.368002 0.243122
0.511666 0.370581 0.245716
0.649714 0.373632 0.248768
0.771145 0.380621 0.255756
0.875715 0.392493 0.267628
0.974746 0.406027 0.281163
0.0211643 0.489265 0.230381
0.126497 0.501503 0.242603
0.243122 0.510079 0.251179
0.380911 0.512718 0.253819
0.521904 0.514824 0.25594
0.659876 0.51783 0.25893
0.781552 0.525048 0.266148
0.88574 0.536538 0.277653
0.983719 0.54902 0.290135
0.0343328 0.632715 0.243534
0.13933 0.644617 0.255436
0.256077 0.653315 0.264134
0.393942 0.656016 0.26685
0.534295 0.657511 0.268345
0.670985 0.659205 0.270039
0.790692 0.664469 0.275288
0.892256 0.673335 0.284169
0.986954 0.682551 0.29337
0.0603952 0.770657 0.269596
0.164523 0.781689 0.280629
0.279728 0.788861 0.2878
0.415381 0.789349 0.288289
0.55288 0.787976 0.286915
0.686091 0.786206 0.285145
0.801938 0.78761 0.286549
0.899504 0.792477 0.291417
0.99025 0.797742 0.296681
0.0961166 0.897017 0.305333
0.197131 0.904921 0.313252
0.308705 0.908461 0.316777
0.440436 0.905013 0.313344
0.573922 0.899641 0.307958
0.703227 0.893965 0.302281
0.81529 0.891569 0.299901
0.909331 0.892912 0.301228
0.996963 0.895048 0.30338
0.126635 1 0.335851
0.223682 1 0.339788
0.33138 1 0.339452
0.459388 1 0.332296
0.589487 0.996155 0.323522
0.715862 0.987533 0.3149
0.825544 0.982788 0.310155
0.917769 0.9823 0.309682
1 0.983154 0.310536
0.000488289 0.000488289 0.339834
0.0960555 0.00294499 0.34229
0.202853 0.00170901 0.341039
0.33106 0 0.334081
0.462654 0 0.326818
0.592065 0 0.321248
0.706584 0 0.321309
0.805402 0 0.327428
0.900008 0 0.336553
0.00604257 0.101381 0.345373
0.101884 0.104128 0.348119
0.210498 0.104707 0.348699
0.341833 0.100877 0.344854
0.477516 0.0976883 0.34168
0.611643 0.0968185 0.34081
0.731106 0.101839 0.34583
0.83473 0.112764 0.356756
0.933547 0.126101 0.370092
0.00978103 0.212238 0.349111
0.109972 0.219333 0.356207
0.223438 0.22475 0.361639
0.359716 0.225864 0.362753
0.500038 0.227329 0.364202
0.638056 0.23035 0.367239
0.760281 0.238132 0.375006
0.865385 0.250538 0.387427
0.964477 0.264149 0.401022
0.011841 0.345922 0.351171
0.116457 0.357427 0.362676
0.233433 0.366369 0.371618
0.372 0.369787 0.375036
0.513375 0.37229 0.377539
0.651209 0.375143 0.380392
0.772702 0.382177 0.387427
0.877348 0.39411 0.399374
0.976364 0.40766 0.412909
0.0229343 0.491035 0.362264
0.128145 0.503151 0.37438
0.244587 0.511543 0.382788
0.382513 0.514305 0.385534
0.523522 0.516457 0.387686
0.661479 0.519432 0.390661
0.783062 0.526558 0.397787
0.887083 0.537881 0.409125
0.984817 0.550134 0.421363
0.0359503 0.634333 0.37528
0.140963 0.64625 0.387182
0.257649 0.654887 0.395834
0.395392 0.657481 0.398428
0.535561 0.658778 0.399725
0.671992 0.660227 0.401175
0.791379 0.665156 0.406104
0.892561 0.67364 0.414588
0.986831 0.682429 0.423377
0.0617838 0.772061 0.401114
0.165698 0.782879 0.411933
0.280629 0.789761 0.418814
0.415946 0.789914 0.418967
0.553017 0.788128 0.417182
0.685817 0.785931 0.415
0.801282 0.786938 0.416007
0.898451 0.791424 0.420478
0.98883 0.796307 0.425376
0.0965286 0.897429 0.435859
0.197131 0.904921 0.443366
0.308293 0.908034 0.446479
0.439628 0.904219 0.442649
0.572732 0.898451 0.436896
0.701656 0.892393 0.430838
0.813382 0.889677 0.428107
0.907164 0.890745 0.429191
0.994583 0.892683 0.431128
0.125689 1 0.465019
0.222354 1 0.468589
0.329686 1 0.467872
0.457389 1 0.46041
0.587228 0.993896 0.451392
0.71342 0.985092 0.442588
0.822965 0.980209 0.437705
0.915114 0.979644 0.43714
1 0.980468 0.437964
0 0 0.468452
0.094316 0.00122072 0.470649
0.201083 0 0.469368
0.329412 0 0.462531
0.461265 0 0.455528
0.591058 0 0.450324
0.70605 0 0.450874
0.805371 0 0.457496
0.900481 0 0.467124
0.00447089 0.0998093 0.473884
0.100618 0.102861 0.476936
0.209674 0.103868 0.477943
0.341482 0.100526 0.474601
0.477668 0.0978408 0.471931
0.612299 0.0974899 0.471565
0.73225 0.102983 0.477058
0.83621 0.114244 0.488334
0.935241 0.127794 0.501884
0.00961318 0.21207 0.479042
0.110307 0.219669 0.486641
0.224292 0.225605 0.492576
0.360998 0.227146 0.494118
0.50161 0.228901 0.495872
0.639796 0.23209 0.499077
0.762066 0.239918 0.506889
0.867109 0.252247 0.519219
0.965988 0.26566 0.532631
0.0132448 0.347326 0.482658
0.118105 0.359091 0.494423
0.235218 0.368154 0.503487
0.37377 0.371557 0.506905
0.515023 0.373938 0.509285
0.652689 0.376608 0.511955
0.774289 0.383764 0.519112
0.878981 0.395758 0.53109
0.977966 0.409262 0.54461
0.0246738 0.492775 0.494102
0.129717 0.504723 0.50605
0.246113 0.513069 0.514397
0.384115 0.515923 0.51725
0.525154 0.51809 0.519417
0.663066 0.521004 0.522332
0.784512 0.528008 0.529335
0.888365 0.539162 0.54049
0.985855 0.551156 0.552483
0.0375677 0.635966 0.506996
0.14258 0.647868 0.518898
0.25919 0.656443 0.527474
0.396796 0.658885 0.529915
0.536751 0.659968 0.531014
0.672908 0.661128 0.532174
0.791943 0.665721 0.536767
0.892714 0.673793 0.544839
0.986587 0.68217 0.553216
0.0631113 0.773388 0.53254
0.166796 0.783978 0.54313
0.281422 0.790555 0.549706
0.416358 0.790341 0.549493
0.553017 0.788128 0.54728
0.68542 0.785534 0.544686
0.800473 0.786145 0.545296
0.897276 0.790234 0.549386
0.987274 0.794751 0.553903
0.0968032 0.897688 0.566232
0.196994 0.904784 0.573312
0.307744 0.9075 0.576028
0.438682 0.903273 0.571817
0.571405 0.897124 0.565667
0.699977 0.8907 0.559243
0.811399 0.887678 0.556207
0.904921 0.888502 0.557046
0.992142 0.890242 0.558785
0.124605 1 0.594034
0.22089 1 0.597223
0.327871 1 0.596155
0.455283 1 0.588418
0.584909 0.991577 0.579171
0.710933 0.982605 0.570199
0.820356 0.9776 0.565179
0.912428 0.976959 0.564553
0.998718 0.977768 0.565362
0 0 0.592721
0.0928664 0 0.594751
0.199664 0 0.5935
0.328145 0 0.586831
0.460304 0 0.580118
0.590524 0 0.575357
0.706004 0 0.576394
0.805829 0 0.583505
0.901457 0 0.593652
0.00329595 0.0986496 0.598291
0.099794 0.102037 0.601678
0.209308 0.103517 0.603159
0.341619 0.100649 0.60029
0.478309 0.0984817 0.598123
0.613458 0.0986496 0.598291
0.733837 0.10457 0.604212
0.838087 0.116136 0.615778
0.937301 0.129854 0.629496
0.00993362 0.212375 0.604913
0.111147 0.220493 0.613031
0.22562 0.226932 0.619471
0.362707 0.228855 0.621393
0.503578 0.230869 0.623392
0.641886 0.23418 0.626719
0.764157 0.242008 0.634546
0.869078 0.254215 0.646754
0.967788 0.267445 0.659983
0.0150607 0.349142 0.61004
0.120134 0.361105 0.622019
0.237308 0.37026 0.631159
0.375845 0.373617 0.634516
0.51693 0.375845 0.636744
0.654536 0.378454 0.639353
0.776226 0.385702 0.646601
0.880919 0.397696 0.65861
0.979873 0.41117 0.672068
0.026688 0.494804 0.621683
0.131533 0.506539 0.633417
0.248005 0.514961 0.64184
0.386069 0.517861 0.644739
0.527108 0.520027 0.646922
0.664927 0.522866 0.64976
0.786236 0.529732 0.656611
0.889876 0.540673 0.667552
0.987091 0.552392 0.679286
0.0395209 0.637919 0.634516
0.144503 0.64979 0.646387
0.261021 0.658259 0.654856
0.398444 0.660533 0.65713
0.53817 0.661387 0.657984
0.674022 0.662257 0.658854
0.792691 0.666484 0.663081
0.89305 0.674128 0.670726
0.986511 0.682109 0.678706
0.0646982 0.774975 0.659678
0.168124 0.78529 0.670008
0.282414 0.791547 0.676249
0.416968 0.790936 0.675639
0.553201 0.788312 0.67303
0.685206 0.785321 0.670024
0.799863 0.785534 0.670253
0.896284 0.789242 0.673961
0.985901 0.793393 0.678096
0.0972457 0.898146 0.692226
0.197024 0.904814 0.698909
0.307393 0.907134 0.701228
0.437934 0.902525 0.69662
0.570275 0.89601 0.690089
0.698482 0.88922 0.683314
0.809628 0.885908 0.680003
0.902922 0.886503 0.680598
0.989975 0.888075 0.68217
0.12372 1 0.7187
0.219638 1 0.721508
0.326284 1 0.720119
0.453437 0.998978 0.712123
0.582849 0.989517 0.702663
0.708705 0.980392 0.693538
0.818036 0.97528 0.688426
0.910063 0.974594 0.687739
0.996353 0.975402 0.688548
0 0 0.700633
0.0926528 0 0.702556
0.199512 0 0.701381
0.328206 0 0.694926
0.4607 0 0.688548
0.591394 0 0.68426
0.707362 0 0.685771
0.807691 0 0.693401
0.903838 0.00103761 0.704051
0.00347906 0.0988174 0.706477
0.100343 0.102586 0.710262
0.210361 0.104555 0.71223
0.34316 0.102205 0.709865
0.480354 0.100526 0.708202
0.616022 0.101198 0.708873
0.736767 0.107515 0.715175
0.841291 0.119326 0.727001
0.940627 0.133181 0.740856
0.0116579 0.214099 0.714656
0.113375 0.222736 0.723293
0.228336 0.229648 0.730205
0.365759 0.231907 0.732464
0.506828 0.234119 0.734676
0.645228 0.237522 0.738079
0.767452 0.245304 0.745861
0.872221 0.257359 0.757931
0.970855 0.270512 0.771084
0.018204 0.352285 0.721218
0.12343 0.364401 0.733333
0.24065 0.373587 0.742519
0.379095 0.376883 0.745815
0.519982 0.378897 0.747814
0.657649 0.381567 0.7505
0.7794 0.388876 0.757809
0.884108 0.400885 0.769802
0.982971 0.414267 0.7832
0.0298924 0.497993 0.732906
0.134569 0.509575 0.744488
0.251148 0.518105 0.753017
0.389242 0.52105 0.755962
0.530251 0.523186 0.758099
0.667994 0.525933 0.760845
0.789136 0.532631 0.767544
0.892531 0.543328 0.778241
0.989441 0.554757 0.78967
0.04271 0.641093 0.745724
0.147631 0.652918 0.757534
0.264027 0.661265 0.765896
0.401266 0.66334 0.767971
0.540734 0.663951 0.768582
0.676265 0.664485 0.769116
0.794537 0.668315 0.772946
0.894469 0.675563 0.780179
0.987533 0.683131 0.787762
0.0674296 0.777707 0.770443
0.170565 0.787747 0.780484
0.28452 0.793652 0.786389
0.418647 0.79263 0.785367
0.554482 0.789593 0.78233
0.686091 0.786206 0.778943
0.800366 0.786023 0.778775
0.896391 0.789364 0.782101
0.985656 0.793149 0.785885
0.0987869 0.899672 0.801801
0.198154 0.905959 0.808072
0.308125 0.907866 0.809995
0.438285 0.902876 0.805005
0.57026 0.895979 0.798108
0.698131 0.888869 0.790982
0.809003 0.885298 0.787411
0.902098 0.885679 0.787808
0.988998 0.887098 0.789227
0.123934 1 0.826947
0.219471 1 0.829389
0.325826 1 0.82768
0.452735 0.998276 0.81944
0.581964 0.988632 0.809812
0.707683 0.97937 0.800534
0.816938 0.974166 0.795346
0.908919 0.973449 0.794629
0.995224 0.974273 0.795453
0 0 0.789517
0.0938582 0.000762951 0.791424
0.200855 0 0.790372
0.329809 0 0.784161
0.462684 0 0.778164
0.593866 0 0.774365
0.710323 0 0.776379
0.811154 0 0.784512
0.907805 0.00502022 0.795682
0.00518807 0.100526 0.79585
0.102495 0.104753 0.800061
0.213001 0.107195 0.802518
0.346303 0.105333 0.800656
0.484016 0.104189 0.799512
0.620142 0.105333 0.800656
0.741253 0.111986 0.807294
0.845975 0.12401 0.819333
0.945403 0.137957 0.833265
0.0149844 0.217441 0.805646
0.11722 0.226581 0.814786
0.232609 0.233921 0.822126
0.370321 0.236469 0.824674
0.511559 0.238849 0.827054
0.650004 0.242298 0.830503
0.772152 0.250004 0.838209
0.876707 0.26186 0.850065
0.975402 0.275059 0.863279
0.0228428 0.356924 0.813504
0.128176 0.369162 0.825742
0.245411 0.378347 0.834928
0.383734 0.381506 0.838087
0.524437 0.383352 0.839933
0.662226 0.386145 0.842725
0.784024 0.3935 0.85008
0.888685 0.405463 0.862043
0.987457 0.418753 0.875334
0.0344549 0.502556 0.825116
0.139086 0.514076 0.836637
0.255741 0.522698 0.845258
0.393866 0.525673 0.848219
0.534813 0.527749 0.850309
0.672435 0.530373 0.852934
0.793378 0.536873 0.859434
0.896529 0.547326 0.869886
0.993118 0.558434 0.880995
0.0473182 0.645701 0.837964
0.152163 0.65745 0.849714
0.268406 0.665644 0.857923
0.405432 0.667521 0.859785
0.544625 0.667842 0.860121
0.679805 0.66804 0.860319
0.797665 0.671458 0.863722
0.8972 0.678279 0.870558
0.989853 0.68545 0.877729
0.0715038 0.781781 0.862165
0.17435 0.791516 0.8719
0.287922 0.797055 0.87744
0.421637 0.795605 0.87599
0.557061 0.792172 0.872557
0.688273 0.788388 0.868772
0.802152 0.787823 0.868208
0.89781 0.790784 0.871168
0.98674 0.794232 0.874617
0.101625 0.90251 0.892287
0.200595 0.908385 0.898146
0.31017 0.909911 0.899687
0.439948 0.90454 0.894301
0.571542 0.897261 0.887037
0.699107 0.889845 0.879622
0.80975 0.88603 0.875807
0.902647 0.886229 0.876005
0.98941 0.88751 0.877287
0.12546 1 0.916121
0.220645 1 0.918196
0.326711 1 0.916228
0.453391 0.998932 0.907759
0.582452 0.98912 0.897948
0.708049 0.979736 0.888548
0.817243 0.974472 0.883299
0.909209 0.973739 0.882567
0.99556 0.974609 0.883421
0.000839246 0.000839246 0.868437
0.0958572 0.00276188 0.870359
0.203021 0.00187686 0.869474
0.332265 0 0.863569
0.465568 0 0.858015
0.597253 0 0.854688
0.714214 0 0.857206
0.815549 0 0.865843
0.912688 0.00988785 0.877501
0.0077821 0.103136 0.875395
0.105577 0.10782 0.880079
0.216556 0.110765 0.883024
0.350362 0.109407 0.881666
0.488594 0.108766 0.881025
0.625162 0.110353 0.882612
0.746548 0.117296 0.889555
0.851453 0.129488 0.901747
0.950927 0.143481 0.91574
0.0192416 0.221683 0.886839
0.121981 0.231342 0.896483
0.237751 0.239063 0.904204
0.375708 0.241856 0.907012
0.517082 0.244358 0.909514
0.655512 0.247807 0.912963
0.777539 0.25539 0.920531
0.881926 0.267063 0.932219
0.980728 0.280385 0.945541
0.0282902 0.362371 0.895888
0.133715 0.374685 0.908202
0.250889 0.383825 0.917342
0.389044 0.386831 0.920348
0.529702 0.388617 0.922133
0.667567 0.391501 0.925017
0.789395 0.398871 0.932387
0.894011 0.410788 0.944305
0.99266 0.423957 0.957473
0.0396735 0.50779 0.907286
0.144381 0.519387 0.918883
0.261112 0.528069 0.927565
0.399222 0.531029 0.930526
0.540093 0.533028 0.93254
0.677562 0.535515 0.935012
0.798321 0.541817 0.941314
0.901183 0.55198 0.951476
0.997436 0.562753 0.962249
0.0526589 0.651041 0.920256
0.157397 0.662684 0.931899
0.273472 0.67071 0.939925
0.410269 0.672358 0.941558
0.549157 0.672374 0.941588
0.68397 0.672206 0.941421
0.801419 0.675196 0.944411
0.900542 0.68162 0.950835
0.992798 0.688396 0.95761
0.0762341 0.786511 0.943832
0.178744 0.795926 0.953246
0.291936 0.801053 0.958389
0.425238 0.799207 0.956527
0.560265 0.795361 0.952697
0.691066 0.79118 0.948516
0.804578 0.790249 0.94757
0.899855 0.792828 0.950149
0.988479 0.795972 0.953292
0.105074 0.905959 0.972671
0.203647 0.911437 0.978134
0.312825 0.912581 0.979278
0.442222 0.906813 0.973526
0.573465 0.899199 0.965896
0.700755 0.891493 0.958206
0.81117 0.887449 0.954162
0.903899 0.88748 0.954192
0.990539 0.88864 0.955352
0.127596 1 0.995209
0.222461 1 0.996963
0.328267 1 0.99472
0.454749 1 0.986053
0.583658 0.990326 0.976089
0.709148 0.980835 0.966598
0.81828 0.975525 0.961288
0.910262 0.974792 0.960555
0.996658 0.975708 0.961471
