storage/filter_uploads/c7d2fa34-be9b-41a2-abb8-42927eddbc6c.cube
TITLE "Generated by Resolve"
LUT_3D_SIZE 33
0 0 0
0.0250095 0.00109865 0.00109865
0.0491951 0.00228885 0.00228885
0.0730755 0.00331121 0.00331121
0.0972 0.00410468 0.00410468
0.122042 0.00457771 0.00457771
0.148058 0.004654 0.004654
0.17554 0.00425727 0.00425727
0.204547 0.00340276 0.00340276
0.235111 0.00207523 0.00207523
0.266972 0.000366217 0.000366217
0.299641 0 0
0.332692 0 0
0.365652 0 0
0.398169 0 0
0.430884 0 0
0.463798 0 0
0.496666 0 0
0.529198 0 0
0.561181 0 0
0.59234 0 0
0.622431 0 0
0.651301 0 0
0.679011 0 0
0.705577 0 0
0.73106 0 0
0.755611 0 0
0.779507 0 0
0.80293 0 0
0.826093 0 0
0.84921 0 0
0.87245 0 0
0.89604 0 0
0.00210575 0.0274357 0.00210575
0.0266423 0.0280766 0.00273136
0.0503853 0.028809 0.0034638
0.0739452 0.0295109 0.00418097
0.0978256 0.0300755 0.0047303
0.122484 0.0303655 0.00503548
0.148363 0.0303044 0.00495918
0.175738 0.0298009 0.00447089
0.204685 0.0288701 0.00354009
0.235218 0.027512 0.00216678
0.267063 0.025803 0.000457771
0.299748 0.0238804 0
0.332845 0.0218814 0
0.36585 0.0199283 0
0.398459 0.0181125 0
0.431281 0.0163119 0
0.464332 0.0144961 0
0.497322 0.0127565 0
0.530037 0.0111696 0
0.562203 0.00981155 0
0.593561 0.00874342 0
0.623865 0.00805676 0
0.652995 0.00779736 0
0.680964 0.00796521 0
0.70782 0.00856031 0
0.733593 0.00953689 0
0.758465 0.0108797 0
0.78265 0.0125277 0
0.806378 0.0144198 0
0.829847 0.0164797 0
0.853269 0.0186923 0
0.876814 0.0209659 0
0.900725 0.0232853 0
0.00419623 0.0530404 0.00419623
0.0285344 0.0534524 0.00460822
0.0521096 0.0540322 0.00518807
0.0755474 0.054612 0.00576791
0.0993362 0.0550851 0.00624094
0.123934 0.0553292 0.00648508
0.149783 0.0552224 0.00637827
0.177172 0.0547341 0.00588998
0.206134 0.0538186 0.0049897
0.236713 0.0525063 0.00366217
0.268635 0.0508583 0.00202945
0.301411 0.0490425 0.000198367
0.3346 0.0471504 0
0.367758 0.0453193 0
0.400519 0.0436713 0
0.433509 0.0420386 0
0.466743 0.0404059 0
0.499947 0.03888 0
0.532891 0.0375219 0
0.565316 0.0364233 0
0.596948 0.0356298 0
0.627558 0.0352483 0
0.656977 0.0352941 0
0.685252 0.0357519 0
0.712398 0.0366369 0
0.738491 0.0379339 0
0.763653 0.0395819 0
0.788159 0.0415351 0
0.812192 0.0437324 0
0.835981 0.0461128 0
0.859709 0.0486305 0
0.883574 0.0512245 0.00239567
0.907805 0.0538491 0.00502022
0.00605783 0.0779889 0.00605783
0.0303197 0.0783246 0.00639353
0.0538338 0.0788434 0.0069276
0.0772564 0.0794232 0.00749218
0.101061 0.0798962 0.00796521
0.125704 0.0801709 0.00823987
0.151598 0.0801251 0.00819409
0.179065 0.0797131 0.0077821
0.208118 0.0789044 0.00697337
0.238819 0.0777142 0.00578317
0.270878 0.0762036 0.00427253
0.303822 0.0745251 0.00260929
0.337194 0.0728161 0.000885023
0.37055 0.0711986 0
0.403525 0.0697642 0
0.436759 0.0683604 0
0.470253 0.0670024 0
0.503746 0.0657664 0
0.53698 0.0646982 0
0.569696 0.0638895 0
0.601648 0.0634165 0
0.632547 0.0633249 0
0.662272 0.0636759 0
0.690852 0.0644388 0
0.718318 0.0656443 0
0.744717 0.0672313 0
0.770184 0.0691997 0
0.79501 0.0714733 0
0.819364 0.073991 0.00205997
0.843458 0.0766918 0.00476081
0.867506 0.07953 0.00759899
0.891707 0.0824445 0.0105135
0.916228 0.085359 0.0134432
0.00753796 0.102876 0.00753796
0.0318151 0.103243 0.00788891
0.0553902 0.103807 0.00846876
0.0788586 0.104433 0.00909438
0.102754 0.104997 0.00965896
0.127489 0.105379 0.0100404
0.153521 0.10547 0.010132
0.181125 0.105196 0.00985733
0.210361 0.104555 0.00921645
0.241245 0.103548 0.00819409
0.273503 0.102251 0.00689708
0.306676 0.100801 0.00544747
0.340291 0.0993362 0.00399786
0.373922 0.0979782 0.00263981
0.407187 0.0968338 0.00149538
0.440711 0.0957351 0.000396735
0.47451 0.0946822 0
0.508309 0.0937362 0
0.541848 0.0929885 0
0.574868 0.0924849 0
0.607126 0.0923018 0
0.638331 0.0925307 0
0.668376 0.0931868 0
0.697261 0.0942702 0
0.725048 0.0957809 0.000442512
0.751766 0.0977035 0.00236515
0.777554 0.0999771 0.00463874
0.802701 0.102571 0.00723278
0.827359 0.105394 0.0100557
0.851759 0.1084 0.0130617
0.876081 0.111513 0.0161746
0.900526 0.114672 0.0193332
0.925277 0.11783 0.0224918
0.00851453 0.128191 0.00851453
0.0328832 0.128634 0.0089723
0.0565652 0.12932 0.00965896
0.0801862 0.130083 0.0104219
0.104234 0.1308 0.0111238
0.129137 0.13135 0.0116884
0.155367 0.13164 0.0119631
0.183185 0.131579 0.011902
0.212634 0.131167 0.01149
0.243778 0.130419 0.0107424
0.276326 0.129396 0.00972
0.309789 0.128237 0.00857557
0.343709 0.127077 0.00741588
0.37763 0.126024 0.00636301
0.4112 0.125185 0.00552377
0.445045 0.124392 0.00471504
0.479149 0.123644 0.00396735
0.513252 0.123003 0.00334173
0.547097 0.12256 0.00289921
0.580438 0.122362 0.00270085
0.613001 0.122515 0.00283818
0.644526 0.123049 0.0033875
0.674876 0.124025 0.00434882
0.704097 0.125429 0.00576791
0.732189 0.12726 0.00758373
0.759213 0.129488 0.00981155
0.785306 0.132067 0.0123903
0.810712 0.134905 0.0152438
0.835615 0.137987 0.0183108
0.860243 0.141207 0.0215305
0.884764 0.144518 0.0248569
0.909392 0.147875 0.0281987
0.93431 0.151186 0.0315251
0.00883497 0.154314 0.00883497
0.0333562 0.154925 0.00944533
0.0572213 0.155779 0.0102998
0.0810407 0.156756 0.0112612
0.105303 0.157687 0.0122072
0.130449 0.15848 0.0130007
0.156954 0.15903 0.01355
0.185046 0.159258 0.0137789
0.214801 0.159136 0.0136568
0.24625 0.158694 0.0132143
0.279088 0.157977 0.0124971
0.312856 0.157122 0.0116426
0.347082 0.156268 0.0107881
0.381308 0.15552 0.0100404
0.415198 0.154986 0.00950637
0.449348 0.154498 0.00901808
0.483757 0.15407 0.00859083
0.518181 0.15375 0.00827039
0.552346 0.153613 0.00813306
0.585992 0.153735 0.00825513
0.618875 0.154208 0.00872816
0.650721 0.155062 0.00958267
0.681376 0.156329 0.0108492
0.710872 0.158022 0.0125429
0.739239 0.160113 0.0146334
0.766491 0.16257 0.0170901
0.792798 0.165362 0.0198825
0.818402 0.168414 0.0229343
0.843488 0.171664 0.0261845
0.868254 0.175036 0.0295567
0.892927 0.178485 0.0330053
0.917662 0.181949 0.0364691
0.942687 0.185367 0.0398871
0.00849927 0.181552 0.00849927
0.0332494 0.182391 0.00933852
0.0573739 0.183505 0.0104524
0.0814527 0.184741 0.0116884
0.10602 0.185962 0.0129091
0.131456 0.18706 0.0140078
0.158251 0.187915 0.0148623
0.186664 0.188434 0.0153811
0.216724 0.188632 0.0155795
0.248463 0.188479 0.0154269
0.281621 0.188067 0.0150149
0.315694 0.187533 0.0144808
0.35024 0.186984 0.0139315
0.384771 0.186557 0.0135042
0.418982 0.186343 0.0132906
0.453437 0.186175 0.0131228
0.488167 0.186053 0.0130007
0.522911 0.186053 0.0130007
0.557397 0.186236 0.0131838
0.591348 0.186664 0.013611
0.624491 0.187396 0.0143435
0.656596 0.188495 0.0154421
0.68748 0.190005 0.0169528
0.717174 0.191897 0.0188449
0.745724 0.194171 0.0211185
0.773159 0.196811 0.0237583
0.799603 0.199741 0.026688
0.82533 0.20293 0.0298772
0.850523 0.206271 0.0332189
0.875395 0.209751 0.0366979
0.90013 0.213275 0.0402228
0.924926 0.216785 0.0437324
0.949981 0.220233 0.0471809
0.00772107 0.210163 0.00772107
0.0327611 0.211292 0.00885023
0.0571756 0.212711 0.0102541
0.0815595 0.214252 0.0117952
0.106432 0.215778 0.0133211
0.132189 0.217182 0.014725
0.159289 0.218326 0.0158846
0.187991 0.219165 0.0167086
0.218357 0.219669 0.0172122
0.250431 0.219837 0.01738
0.283894 0.219745 0.0172885
0.318288 0.219516 0.0170748
0.35314 0.219287 0.0168307
0.388006 0.219181 0.0167239
0.422522 0.219287 0.0168307
0.457282 0.219425 0.016968
0.492302 0.219593 0.0171359
0.527306 0.219852 0.0173953
0.562036 0.220279 0.0178225
0.596201 0.22092 0.0184787
0.629557 0.221851 0.0194095
0.66183 0.223133 0.0206912
0.692882 0.224811 0.0223545
0.722728 0.226841 0.0243992
0.7514 0.229252 0.0267948
0.778927 0.231983 0.0295262
0.805463 0.235004 0.0325475
0.831266 0.238239 0.0357977
0.856504 0.241642 0.0392004
0.881392 0.245136 0.0426947
0.906126 0.248676 0.0462196
0.930907 0.252171 0.0497292
0.955932 0.255589 0.0531472
0.00660716 0.240299 0.00660716
0.0319677 0.241733 0.0080415
0.0566873 0.243458 0.00976577
0.0813764 0.245304 0.0116121
0.106554 0.24715 0.0134432
0.132616 0.248859 0.0151675
0.160021 0.250324 0.0166323
0.189044 0.251469 0.0177768
0.219745 0.252293 0.0186007
0.252125 0.252781 0.0190738
0.285908 0.25301 0.0193027
0.320607 0.253086 0.0193942
0.355779 0.253162 0.0194705
0.390921 0.25333 0.0196384
0.425681 0.253697 0.0200046
0.460685 0.254063 0.0203708
0.495918 0.254459 0.0207523
0.531121 0.254917 0.02121
0.566018 0.255512 0.0218051
0.600336 0.256306 0.0226139
0.633844 0.257374 0.023682
0.666224 0.258778 0.0250706
0.697368 0.260533 0.0268406
0.727291 0.262654 0.0289616
0.756024 0.26511 0.0314183
0.783581 0.267872 0.0341802
0.810132 0.270924 0.037232
0.835935 0.274159 0.0404669
0.861158 0.277546 0.0438544
0.886015 0.28101 0.047303
0.910689 0.284474 0.050782
0.935409 0.287907 0.0542153
0.960327 0.291234 0.0575418
0.00547799 0.271901 0.00547799
0.0311284 0.27364 0.00721752
0.0561685 0.275669 0.00924697
0.081178 0.277836 0.0114137
0.106661 0.279988 0.0135653
0.133043 0.282017 0.0155947
0.160784 0.283803 0.01738
0.190127 0.285267 0.0188449
0.221118 0.286397 0.0199741
0.253803 0.287175 0.0207523
0.287861 0.287678 0.0212558
0.322805 0.288014 0.0215915
0.35819 0.288304 0.0218967
0.393545 0.288685 0.0222629
0.428504 0.289235 0.0228122
0.463676 0.289769 0.0233616
0.499062 0.290303 0.0238804
0.534386 0.290883 0.0244755
0.56939 0.2916 0.0251774
0.6038 0.292485 0.0260624
0.637354 0.293614 0.0272068
0.669795 0.295064 0.0286564
0.700969 0.296864 0.0304417
0.730907 0.299001 0.032578
0.759625 0.301442 0.0350195
0.787167 0.304189 0.0377661
0.813687 0.307179 0.0407721
0.839414 0.310369 0.043946
0.864546 0.313664 0.0472419
0.889311 0.317021 0.0505989
0.913878 0.320378 0.0539559
0.938445 0.323674 0.0572518
0.963272 0.326894 0.0604715
0.0047303 0.304799 0.0047303
0.0307164 0.306859 0.00679026
0.0560616 0.309209 0.00914015
0.0813916 0.311681 0.0116274
0.107195 0.314153 0.0140993
0.133883 0.316487 0.016434
0.161898 0.318563 0.0184939
0.191516 0.320287 0.0202335
0.222751 0.32166 0.0216068
0.25565 0.322652 0.0225986
0.289906 0.323354 0.0233005
0.325032 0.323873 0.0238193
0.360571 0.324331 0.0242771
0.396063 0.324849 0.0247959
0.431144 0.325505 0.025452
0.466407 0.326162 0.0260929
0.501869 0.326772 0.0267033
0.53727 0.327413 0.0273594
0.57232 0.328161 0.0281071
0.606744 0.329076 0.0290227
0.640314 0.33022 0.0301671
0.672755 0.331655 0.0316014
0.703883 0.333425 0.0333562
0.733776 0.3355 0.0354467
0.762417 0.337865 0.0378119
0.789868 0.340536 0.0404822
0.816281 0.34342 0.0433661
0.841886 0.346471 0.0464179
0.866896 0.349645 0.0495918
0.891554 0.352911 0.0528572
0.916121 0.356252 0.056199
0.940734 0.359609 0.0595407
0.965637 0.362905 0.0628519
0.00479133 0.338872 0.00479133
0.0310826 0.341253 0.00717174
0.056733 0.343893 0.00981155
0.0823377 0.346654 0.0125734
0.1084 0.349371 0.0152895
0.135317 0.351949 0.0178683
0.163546 0.354223 0.0201419
0.193347 0.356146 0.0220645
0.224765 0.357702 0.0236057
0.257801 0.358846 0.0247654
0.292195 0.35967 0.0255894
0.327443 0.360296 0.026215
0.363073 0.360861 0.0267796
0.398642 0.36144 0.0273594
0.433768 0.362173 0.0280919
0.469078 0.362844 0.0287633
0.504555 0.36347 0.0293889
0.539956 0.364126 0.030045
0.574975 0.364843 0.0307774
0.609369 0.365728 0.0316472
0.642878 0.366812 0.0327306
0.675227 0.36817 0.0340887
0.706279 0.369833 0.0357519
0.736049 0.371801 0.0377203
0.764569 0.374044 0.0399634
0.791897 0.376577 0.0424964
0.81825 0.379416 0.0453346
0.843854 0.382483 0.0484016
0.86894 0.385718 0.0516365
0.893675 0.389059 0.0549783
0.918288 0.392462 0.058381
0.942962 0.39585 0.0617685
0.967895 0.399176 0.0651102
0.00593576 0.373892 0.00593576
0.0324712 0.376516 0.00854505
0.0583505 0.379385 0.011429
0.0841535 0.382361 0.0143893
0.110399 0.38526 0.0172885
0.137484 0.387991 0.0200198
0.165866 0.390417 0.0224613
0.195773 0.392462 0.024506
0.227298 0.394125 0.026154
0.260441 0.395361 0.0273899
0.294896 0.396246 0.0282902
0.33019 0.396933 0.0289769
0.36585 0.397513 0.0295415
0.401434 0.398123 0.0301518
0.436545 0.398825 0.030869
0.471824 0.399481 0.0315099
0.507271 0.400061 0.0320897
0.542596 0.400641 0.0326848
0.577523 0.401282 0.0333257
0.611826 0.40206 0.0340887
0.645212 0.403021 0.0350652
0.677424 0.404242 0.036286
0.70837 0.405814 0.0378576
0.738109 0.407752 0.0397803
0.766659 0.410025 0.0420539
0.794079 0.412634 0.0446784
0.820493 0.415534 0.0475776
0.846159 0.418662 0.0506905
0.871275 0.421927 0.0539712
0.896056 0.425315 0.0573434
0.920684 0.428733 0.0607614
0.945357 0.432135 0.0641794
0.970291 0.435477 0.0675059
0.00825513 0.409491 0.00825513
0.0349584 0.412284 0.0110475
0.0610056 0.41532 0.0140841
0.0869459 0.418418 0.0171817
0.113313 0.421454 0.0202029
0.14049 0.424277 0.0230411
0.168948 0.426795 0.0255436
0.198932 0.428901 0.0276493
0.230488 0.430594 0.0293431
0.263645 0.431846 0.0306096
0.298116 0.432746 0.0315099
0.333394 0.433417 0.0321813
0.369024 0.433967 0.0327153
0.404547 0.434516 0.0332647
0.439597 0.435157 0.0339055
0.474784 0.435706 0.0344701
0.510109 0.436179 0.0349432
0.545312 0.436637 0.0354009
0.580118 0.437156 0.0359045
0.614343 0.437842 0.0366064
0.647715 0.438804 0.0375677
0.679988 0.440085 0.0388495
0.711009 0.441718 0.0404822
0.74081 0.443717 0.0424811
0.769406 0.446036 0.0448005
0.796857 0.448692 0.0474556
0.823301 0.451621 0.0503853
0.848981 0.454765 0.0535286
0.874113 0.458045 0.0568093
0.898894 0.461418 0.0601816
0.923506 0.46482 0.0635843
0.948165 0.468208 0.0669718
0.973053 0.471504 0.0702678
0.0110628 0.445624 0.0110475
0.0378729 0.448524 0.013962
0.0640116 0.451652 0.0170901
0.0900282 0.454826 0.020264
0.116442 0.457908 0.0233463
0.143664 0.460777 0.0261997
0.172137 0.463294 0.0287327
0.202121 0.4654 0.0308385
0.233646 0.467079 0.0325017
0.266773 0.468299 0.0337224
0.301167 0.469139 0.0345617
0.33637 0.469718 0.0351568
0.371908 0.470176 0.0355993
0.407309 0.470603 0.0360418
0.442222 0.471107 0.0365454
0.477302 0.47155 0.0369879
0.512581 0.471977 0.0374151
0.547799 0.47245 0.0378882
0.582666 0.47303 0.038468
0.616968 0.473793 0.0392309
0.650401 0.474815 0.040238
0.682719 0.476143 0.0415656
0.713771 0.477821 0.0432441
0.743603 0.479835 0.0452583
0.772213 0.48217 0.0476081
0.799664 0.484825 0.0502632
0.826093 0.487755 0.0531777
0.851759 0.490867 0.0563058
0.87686 0.494118 0.059556
0.901595 0.497459 0.0628977
0.926162 0.500816 0.0662547
0.950759 0.504143 0.0695659
0.975586 0.507362 0.0728008
0.0140078 0.482109 0.0140078
0.0408789 0.485069 0.016968
0.0670329 0.488212 0.0201114
0.0930648 0.491402 0.0233005
0.119463 0.494469 0.0263676
0.14667 0.497307 0.0292058
0.175082 0.499779 0.0316777
0.205005 0.501823 0.0337224
0.236454 0.50341 0.0353094
0.269459 0.504524 0.0364233
0.303746 0.505241 0.0371405
0.338811 0.505684 0.037583
0.374243 0.50605 0.0379492
0.409628 0.506447 0.0383459
0.444587 0.506996 0.0388952
0.479728 0.507515 0.0394141
0.515068 0.508003 0.0399023
0.550347 0.508537 0.0404364
0.58526 0.509148 0.0410468
0.619593 0.509957 0.0418555
0.65304 0.510979 0.0428779
0.685374 0.512322 0.0442206
0.716426 0.514 0.0458991
0.746242 0.516014 0.0479133
0.774838 0.518318 0.0502327
0.802243 0.520943 0.052842
0.828641 0.523827 0.0557259
0.854261 0.526894 0.058793
0.879286 0.530083 0.0619821
0.903944 0.533349 0.0652476
0.928435 0.536614 0.068513
0.952926 0.539834 0.0717479
0.977661 0.542962 0.0748608
0.0171206 0.518654 0.0171206
0.0439765 0.521584 0.0200504
0.0700847 0.524697 0.0231785
0.0960708 0.527825 0.0262913
0.122393 0.530831 0.0292973
0.149493 0.533578 0.0320439
0.177813 0.535943 0.0344091
0.207599 0.53785 0.0363165
0.238911 0.5393 0.0377661
0.271855 0.540352 0.038819
0.306142 0.54107 0.0395361
0.341268 0.541573 0.0400397
0.376776 0.542 0.0404822
0.412222 0.542473 0.04094
0.447227 0.543069 0.0415351
0.482414 0.543633 0.0420996
0.517784 0.544137 0.0426184
0.553063 0.544686 0.0431525
0.587991 0.545312 0.0437781
0.622309 0.546105 0.0445716
0.655756 0.547127 0.045594
0.68806 0.54844 0.0469062
0.719081 0.550088 0.0485542
0.748837 0.552041 0.0505074
0.777371 0.554299 0.0527657
0.80473 0.556848 0.0553292
0.831037 0.559655 0.0581216
0.856565 0.562631 0.0610971
0.881498 0.565728 0.0641947
0.90605 0.568872 0.0673381
0.930404 0.57203 0.0704967
0.954772 0.575113 0.0735943
0.979355 0.578103 0.0765698
0.0203708 0.554955 0.0203708
0.0471351 0.557809 0.0232242
0.073167 0.56083 0.0262455
0.0990158 0.563836 0.0292515
0.125216 0.56669 0.032105
0.152193 0.569329 0.0347448
0.180468 0.571649 0.0370642
0.210269 0.573587 0.0390021
0.241672 0.575113 0.040528
0.274678 0.576226 0.0416419
0.30901 0.577005 0.0424048
0.344182 0.577554 0.0429694
0.379736 0.578012 0.0434272
0.415198 0.5785 0.0439155
0.450217 0.579126 0.0445411
0.485405 0.579675 0.0450904
0.520775 0.580194 0.0456092
0.556039 0.580713 0.046128
0.590936 0.581308 0.0467231
0.625208 0.582055 0.0474861
0.65861 0.583032 0.0484474
0.690852 0.584283 0.0496986
0.721798 0.585855 0.0512703
0.751476 0.587732 0.0531472
0.779919 0.589899 0.055314
0.807172 0.592355 0.0577707
0.833371 0.595041 0.0604562
0.858763 0.597879 0.0633097
0.883574 0.600855 0.0662699
0.907973 0.603845 0.069276
0.932174 0.606851 0.0722667
0.95639 0.609781 0.0751965
0.980789 0.612589 0.0780041
0.0237583 0.590707 0.0237583
0.0504005 0.593439 0.0264744
0.0763256 0.596368 0.0294041
0.102159 0.599359 0.0323949
0.128405 0.602258 0.0353094
0.155474 0.604974 0.0380102
0.183795 0.607355 0.0403906
0.213657 0.609339 0.0423896
0.24509 0.61091 0.043946
0.278141 0.612055 0.0450904
0.31249 0.612848 0.0458839
0.347677 0.613413 0.0464485
0.383215 0.61387 0.0469215
0.418677 0.614359 0.0473945
0.453666 0.614939 0.0479896
0.488823 0.615473 0.0485084
0.524147 0.61593 0.0489662
0.55935 0.616403 0.0494392
0.594186 0.616938 0.0499733
0.628397 0.617624 0.05066
0.661692 0.618494 0.0515297
0.693843 0.619654 0.0526894
0.724681 0.621118 0.0541543
0.754238 0.622873 0.0559091
0.782559 0.624918 0.0579538
0.809674 0.627222 0.0602731
0.835721 0.62977 0.0628061
0.86096 0.632456 0.065507
0.885588 0.635248 0.0682841
0.909819 0.638071 0.0711223
0.933837 0.640879 0.07393
0.957839 0.64361 0.0766613
0.98204 0.646204 0.0792554
0.0275883 0.625971 0.0275883
0.0542916 0.628763 0.0303807
0.080293 0.631769 0.0333867
0.106203 0.634806 0.0364233
0.132494 0.637766 0.0393835
0.159594 0.640513 0.0421302
0.187945 0.642924 0.0445411
0.217823 0.644923 0.04654
0.249271 0.64651 0.0481117
0.282307 0.647639 0.0492561
0.31664 0.648417 0.0500343
0.351797 0.648966 0.0505684
0.387304 0.649378 0.0509957
0.422705 0.649821 0.0514382
0.457649 0.650339 0.051957
0.492729 0.650797 0.0524147
0.527977 0.651194 0.0527962
0.563088 0.65156 0.0531777
0.597818 0.652003 0.0536202
0.631922 0.652567 0.0541848
0.665095 0.65333 0.0549477
0.697108 0.654353 0.0559701
0.72781 0.65568 0.0572824
0.757229 0.657282 0.0588846
0.785382 0.659159 0.0607767
0.812314 0.661295 0.0629129
0.838178 0.663661 0.0652628
0.863233 0.666148 0.0677653
0.887663 0.668742 0.0703593
0.911665 0.671351 0.0729686
0.93547 0.673945 0.0755474
0.959228 0.676432 0.0780499
0.983185 0.678782 0.0803845
0.0325322 0.661097 0.0325322
0.0592813 0.663935 0.0353552
0.0853132 0.666972 0.0383917
0.111238 0.670039 0.041474
0.137545 0.673014 0.0444343
0.164645 0.675761 0.0471809
0.192996 0.678157 0.0495918
0.222843 0.68014 0.0515755
0.254261 0.681682 0.0531167
0.287251 0.68278 0.0542153
0.321538 0.683513 0.0549325
0.356634 0.683986 0.0554208
0.392065 0.684337 0.0557717
0.42739 0.684688 0.0561227
0.462242 0.685115 0.0565499
0.497215 0.685481 0.0569009
0.532341 0.68574 0.0571756
0.56733 0.686 0.0574197
0.601938 0.68629 0.0577249
0.635874 0.686717 0.0581521
0.66891 0.687327 0.0587472
0.700755 0.688182 0.0596017
0.731273 0.689326 0.0607614
0.76051 0.690745 0.0621805
0.788464 0.692424 0.063859
0.815198 0.694362 0.0657969
0.840848 0.696498 0.0679332
0.86566 0.698772 0.0702068
0.889845 0.701106 0.0725414
0.913603 0.703471 0.0749065
0.937148 0.705806 0.0772259
0.960662 0.708034 0.079469
0.984344 0.710124 0.0815595
0.0386511 0.695918 0.0386358
0.0654002 0.698756 0.041474
0.0914321 0.701793 0.0445106
0.117342 0.704845 0.0475776
0.143618 0.70779 0.0505226
0.170687 0.710506 0.0532235
0.198993 0.712856 0.0555886
0.228794 0.714778 0.0575113
0.260136 0.716274 0.0589914
0.293065 0.717296 0.0600137
0.32726 0.717922 0.0606546
0.362249 0.718303 0.0610361
0.397574 0.718547 0.0612802
0.432776 0.718776 0.0615091
0.467506 0.719081 0.0618143
0.502342 0.719295 0.0620279
0.537316 0.719417 0.06215
0.572152 0.719509 0.0622416
0.606577 0.719646 0.0623789
0.640345 0.71989 0.0626078
0.673182 0.720302 0.063035
0.704829 0.720958 0.0636759
0.735149 0.721889 0.064622
0.764141 0.723095 0.0658122
0.791867 0.724544 0.0672618
0.818357 0.726223 0.0689555
0.843748 0.728099 0.0708324
0.868315 0.730114 0.0728466
0.892241 0.732204 0.0749371
0.91574 0.73431 0.0770428
0.939025 0.736385 0.079118
0.96228 0.738369 0.0811017
0.985718 0.7402 0.0829328
0.0458076 0.730297 0.0457923
0.0725261 0.733104 0.0486152
0.0985275 0.736095 0.051606
0.124392 0.739116 0.054612
0.150607 0.742 0.057496
0.1776 0.74464 0.0601358
0.205829 0.746914 0.0624247
0.235538 0.748745 0.0642557
0.266773 0.750134 0.0656291
0.299596 0.751034 0.0665446
0.333669 0.751553 0.0670634
0.368521 0.751797 0.0673075
0.403708 0.751904 0.0674144
0.438758 0.75198 0.0674907
0.47332 0.752117 0.067628
0.507988 0.752163 0.0676738
0.542779 0.752102 0.0675975
0.577417 0.751995 0.0675059
0.611643 0.751919 0.0674296
0.645197 0.751949 0.0674601
0.677806 0.752132 0.0676432
0.709209 0.75256 0.0680705
0.739269 0.753246 0.0687572
0.768017 0.754177 0.069688
0.795483 0.755367 0.0708782
0.821714 0.756802 0.0723125
0.84686 0.758434 0.0739452
0.871168 0.760189 0.0757
0.894835 0.76202 0.0775311
0.91809 0.763882 0.0793927
0.941131 0.765698 0.0812085
0.964141 0.767437 0.082948
0.987335 0.769024 0.084535
0.0538643 0.764126 0.0538491
0.0805219 0.766873 0.056611
0.106447 0.769802 0.0595254
0.132219 0.772717 0.0624399
0.158343 0.775509 0.0652323
0.185229 0.778042 0.0677806
0.213336 0.780209 0.0699321
0.242924 0.781918 0.0716411
0.274037 0.783169 0.0728923
0.306691 0.783932 0.0736553
0.340612 0.784283 0.0740063
0.375311 0.78436 0.0740978
0.410315 0.784283 0.0740215
0.445182 0.784176 0.0738994
0.47953 0.784115 0.0738537
0.514 0.783963 0.0736858
0.548577 0.783673 0.0733959
0.582986 0.783352 0.0730755
0.616968 0.783032 0.072755
0.650263 0.782803 0.0725261
0.682612 0.782727 0.0724651
0.713771 0.782895 0.0726177
0.743572 0.783322 0.0730449
0.772061 0.784009 0.0737316
0.799283 0.784939 0.0746777
0.825254 0.78613 0.0758526
0.850141 0.787503 0.0772259
0.874205 0.789014 0.0787366
0.897642 0.7906 0.0803235
0.920638 0.792218 0.0819409
0.943435 0.79379 0.0835126
0.966201 0.795285 0.085008
0.989151 0.796628 0.0863661
0.0626535 0.797314 0.0626535
0.0892195 0.799969 0.0653086
0.115038 0.802777 0.0681163
0.140688 0.805585 0.0709239
0.16669 0.80824 0.073579
0.193439 0.810651 0.0759747
0.221393 0.81265 0.0779889
0.250813 0.814206 0.07953
0.281758 0.815274 0.0806134
0.314229 0.815854 0.0811933
0.347967 0.816022 0.0813611
0.382452 0.8159 0.081239
0.417258 0.81561 0.0809491
0.451896 0.815274 0.0806134
0.486015 0.814984 0.0803235
0.520226 0.814572 0.0799115
0.554543 0.814038 0.0793774
0.588693 0.813443 0.0787823
0.622415 0.812879 0.0782177
0.655467 0.81239 0.0777295
0.687572 0.81207 0.077409
0.718456 0.811978 0.0773175
0.748012 0.812161 0.0775006
0.776257 0.812589 0.0779278
0.80322 0.813275 0.0786145
0.828962 0.814221 0.0795605
0.853605 0.815351 0.0806897
0.877424 0.816617 0.0819562
0.900603 0.81796 0.083299
0.923369 0.819333 0.0846723
0.945922 0.820676 0.0860151
0.96846 0.821927 0.0872663
0.99118 0.823041 0.0883803
0.0720226 0.829755 0.0720226
0.0984665 0.832273 0.0745403
0.124132 0.834928 0.0772106
0.14963 0.837583 0.0798657
0.175463 0.840085 0.0823682
0.202045 0.842313 0.0845808
0.229816 0.844129 0.0864118
0.259037 0.845487 0.0877699
0.289784 0.846357 0.0886244
0.322042 0.846723 0.0890059
0.35555 0.846662 0.0889448
0.389792 0.846311 0.0885786
0.424338 0.845762 0.0880446
0.458732 0.845167 0.0874495
0.492592 0.844633 0.0869001
0.526543 0.843961 0.0862287
0.560601 0.843153 0.0854353
0.594507 0.842313 0.084596
0.627985 0.841489 0.083772
0.660777 0.840757 0.0830396
0.692622 0.840192 0.0824598
0.723278 0.839857 0.0821241
0.75259 0.83978 0.082063
0.780591 0.839979 0.0822461
0.807309 0.840421 0.0827039
0.832792 0.841108 0.0833906
