storage/filter_uploads/c7d2fa34-be9b-41a2-abb8-42927eddbc6c.cube
TITLE "Generated by Resolve"
LUT_3D_SIZE 5
0 0 0
0.204547 0.00340276 0.00340276
0.463798 0 0
0.705577 0 0
0.89604 0 0
0.00772107 0.210163 0.00772107
0.218357 0.219669 0.0172122
0.492302 0.219593 0.0171359
0.7514 0.229252 0.0267948
0.955932 0.255589 0.0531472
0.0140078 0.482109 0.0140078
0.236454 0.50341 0.0353094
0.515068 0.508003 0.0399023
0.774838 0.518318 0.0502327
0.977661 0.542962 0.0748608
0.0538643 0.764126 0.0538491
0.274037 0.783169 0.0728923
0.548577 0.783673 0.0733959
0.799283 0.784939 0.0746777
0.989151 0.796628 0.0863661
0.124544 1 0.124544
0.330831 1 0.129686
0.590158 0.996826 0.114992
0.826993 0.984222 0.102388
1 0.984939 0.103105
0.00180056 0.00180056 0.211017
0.204639 0.00349432 0.212696
0.464149 0 0.198199
0.707271 0 0.191882
0.899718 0 0.206134
0.0101167 0.212573 0.219333
0.222766 0.224079 0.230838
0.498558 0.225834 0.232593
0.758495 0.236332 0.243091
0.96289 0.262547 0.269306
0.0211643 0.489265 0.230381
0.243122 0.510079 0.251179
0.521904 0.514824 0.25594
0.781552 0.525048 0.266148
0.983719 0.54902 0.290135
0.0603952 0.770657 0.269596
0.279728 0.788861 0.2878
0.55288 0.787976 0.286915
0.801938 0.78761 0.286549
0.99025 0.797742 0.296681
0.126635 1 0.335851
0.33138 1 0.339452
0.589487 0.996155 0.323522
0.825544 0.982788 0.310155
1 0.983154 0.310536
0 0 0.468452
0.201083 0 0.469368
0.461265 0 0.455528
0.70605 0 0.450874
0.900481 0 0.467124
0.00961318 0.21207 0.479042
0.224292 0.225605 0.492576
0.50161 0.228901 0.495872
0.762066 0.239918 0.506889
0.965988 0.26566 0.532631
0.0246738 0.492775 0.494102
0.246113 0.513069 0.514397
0.525154 0.51809 0.519417
0.784512 0.528008 0.529335
0.985855 0.551156 0.552483
0.0631113 0.773388 0.53254
0.281422 0.790555 0.549706
0.553017 0.788128 0.54728
0.800473 0.786145 0.545296
0.987274 0.794751 0.553903
0.124605 1 0.594034
0.327871 1 0.596155
0.584909 0.991577 0.579171
0.820356 0.9776 0.565179
0.998718 0.977768 0.565362
0 0 0.700633
0.199512 0 0.701381
0.4607 0 0.688548
0.707362 0 0.685771
0.903838 0.00103761 0.704051
0.0116579 0.214099 0.714656
0.228336 0.229648 0.730205
0.506828 0.234119 0.734676
0.767452 0.245304 0.745861
0.970855 0.270512 0.771084
0.0298924 0.497993 0.732906
0.251148 0.518105 0.753017
0.530251 0.523186 0.758099
0.789136 0.532631 0.767544
0.989441 0.554757 0.78967
0.0674296 0.777707 0.770443
0.28452 0.793652 0.786389
0.554482 0.789593 0.78233
0.800366 0.786023 0.778775
0.985656 0.793149 0.785885
0.123934 1 0.826947
0.325826 1 0.82768
0.581964 0.988632 0.809812
0.816938 0.974166 0.795346
0.995224 0.974273 0.795453
0.000839246 0.000839246 0.868437
0.203021 0.00187686 0.869474
0.465568 0 0.858015
0.714214 0 0.857206
0.912688 0.00988785 0.877501
0.0192416 0.221683 0.886839
0.237751 0.239063 0.904204
0.517082 0.244358 0.909514
0.777539 0.25539 0.920531
0.980728 0.280385 0.945541
0.0396735 0.50779 0.907286
0.261112 0.528069 0.927565
0.540093 0.533028 0.93254
0.798321 0.541817 0.941314
0.997436 0.562753 0.962249
0.0762341 0.786511 0.943832
0.291936 0.801053 0.958389
0.560265 0.795361 0.952697
0.804578 0.790249 0.94757
0.988479 0.795972 0.953292
0.127596 1 0.995209
0.328267 1 0.99472
0.583658 0.990326 0.976089
0.81828 0.975525 0.961288
0.996658 0.975708 0.961471
