storage/filter_uploads/cb5cadbf-be48-46bc-a192-ca9d9a137b11.cube
TITLE "Python Generated LUT"
LUT_3D_SIZE 33
0.000000 0.000000 0.000000
0.000000 0.000000 0.000000
0.000000 0.000000 0.000000
0.000000 0.000000 0.000000
0.000000 0.000000 0.000000
0.000000 0.000000 0.000000
0.000000 0.000000 0.000000
0.000000 0.000000 0.000658
0.000000 0.000000 0.068566
0.000000 0.000000 0.108678
0.000000 0.000000 0.138550
0.000000 0.000000 0.169622
0.000000 0.000000 0.202821
0.000000 0.000000 0.237613
0.000000 0.000000 0.273629
0.000000 0.000000 0.310585
0.000000 0.000000 0.348353
0.000000 0.000000 0.386682
0.000000 0.000000 0.425511
0.000000 0.000000 0.464785
0.000000 0.000000 0.504321
0.000000 0.000000 0.544237
0.000000 0.000000 0.584353
0.000000 0.000000 0.624752
0.000000 0.000000 0.665338
0.000000 0.000000 0.706124
0.000000 0.005962 0.747164
0.000000 0.019964 0.788200
0.000000 0.030115 0.829577
0.000000 0.036146 0.870990
0.000000 0.040397 0.912454
0.000000 0.045255 0.954035
0.000000 0.050881 0.995716
0.000000 0.000000 0.000000
0.000000 0.000000 0.000000
0.000000 0.000000 0.000000
0.000000 0.000000 0.000000
0.000000 0.000000 0.000000
0.000000 0.000000 0.000000
0.000000 0.000000 0.000000
0.000000 0.000000 0.000000
0.000000 0.000000 0.065086
0.000000 0.000000 0.106224
0.000000 0.000000 0.136405
0.000000 0.000000 0.167693
0.000000 0.000000 0.201159
0.000000 0.000000 0.236264
0.000000 0.000000 0.272550
0.000000 0.000000 0.309712
0.000000 0.000000 0.347564
0.000000 0.000000 0.386059
0.000000 0.000000 0.424917
0.000000 0.000000 0.464267
0.000000 0.000000 0.503793
0.000000 0.000000 0.543777
0.000000 0.000000 0.583991
0.000000 0.000000 0.624349
0.000000 0.000000 0.664976
0.000000 0.000000 0.705800
0.000000 0.014531 0.746825
0.000000 0.027195 0.788075
0.000000 0.035874 0.829292
0.000000 0.040826 0.870630
0.000000 0.045702 0.912249
0.000000 0.050845 0.953841
0.000000 0.056515 0.995534
0.000000 0.000000 0.000000
0.000000 0.000000 0.000000
0.000000 0.000000 0.000000
0.000000 0.000000 0.000000
0.000000 0.000000 0.000000
0.000000 0.000000 0.000000
0.000000 0.000000 0.000000
0.000000 0.000000 0.000000
0.000000 0.000000 0.060895
0.000000 0.000000 0.103194
0.000000 0.000000 0.133924
0.000000 0.000000 0.165721
0.000000 0.000000 0.199613
0.000000 0.000000 0.234955
0.000000 0.000000 0.271496
0.000000 0.000000 0.308780
0.000000 0.000000 0.346793
0.000000 0.000000 0.385259
0.000000 0.000000 0.424299
0.000000 0.000000 0.463698
0.000000 0.000000 0.503297
0.000000 0.000000 0.543302
0.000000 0.000000 0.583448
0.000000 0.000000 0.623985
0.000000 0.000000 0.664705
0.000000 0.009127 0.705518
0.000000 0.023714 0.746582
0.000000 0.034773 0.787675
0.000000 0.041867 0.828963
0.000000 0.046567 0.870511
0.000000 0.051649 0.912050
0.000000 0.057053 0.953559
0.000000 0.062931 0.995411
0.000000 0.000000 0.000000
0.000000 0.000000 0.000000
0.000000 0.000000 0.000000
0.000000 0.000000 0.000000
0.000000 0.000000 0.000000
0.000000 0.000000 0.000000
0.000000 0.000000 0.000000
0.000000 0.000000 0.000000
0.000000 0.000000 0.054554
0.000000 0.000000 0.099216
0.000000 0.000000 0.130954
0.000000 0.000000 0.163334
0.000000 0.000000 0.197670
0.000000 0.000000 0.233390
0.000000 0.000000 0.270160
0.000000 0.000000 0.307614
0.000000 0.000000 0.345784
0.000000 0.000000 0.384406
0.000000 0.000000 0.423413
0.000000 0.000000 0.462965
0.000000 0.000000 0.502664
0.000000 0.000000 0.542715
0.000000 0.000000 0.582932
0.000000 0.000000 0.623536
0.000000 0.008138 0.664182
0.000000 0.023652 0.705089
0.000000 0.035934 0.746105
0.000000 0.044530 0.787288
0.000000 0.049781 0.828612
0.000000 0.054780 0.870038
0.000000 0.060140 0.911690
0.000000 0.065692 0.953264
0.000000 0.071738 0.995087
0.000000 0.000000 0.000000
0.000000 0.000000 0.000000
0.000000 0.000000 0.000000
0.000000 0.000000 0.000000
0.000000 0.000000 0.000000
0.000000 0.000000 0.000000
0.000000 0.000000 0.000000
0.000000 0.000000 0.000000
0.000000 0.000000 0.047370
0.000000 0.000000 0.095005
0.000000 0.000000 0.127707
0.000000 0.000000 0.160788
0.000000 0.000000 0.195555
0.000000 0.000000 0.231682
0.000000 0.000000 0.268650
0.000000 0.000000 0.306301
0.000000 0.000000 0.344648
0.000000 0.000000 0.383293
0.000000 0.000000 0.422573
0.000000 0.000000 0.462086
0.000000 0.000000 0.501946
0.000000 0.000000 0.541969
0.000000 0.000000 0.582280
0.000000 0.013474 0.622920
0.000000 0.028788 0.663632
0.000000 0.041226 0.704514
0.000000 0.049997 0.745676
0.000000 0.055436 0.786863
0.000000 0.060548 0.828263
0.000000 0.065759 0.869621
0.000000 0.071380 0.911296
0.000000 0.077060 0.952801
0.000000 0.083047 0.994595
0.000000 0.000000 0.000000
0.000000 0.000000 0.000000
0.000000 0.000000 0.000000
0.000000 0.000000 0.000000
0.000000 0.000000 0.000000
0.000000 0.000000 0.000000
0.000000 0.000000 0.000000
0.000000 0.000000 0.000000
0.000000 0.000000 0.040210
0.000000 0.000000 0.090661
0.000000 0.000000 0.124460
0.000000 0.000000 0.158266
0.000000 0.000000 0.193561
0.000000 0.000000 0.229878
0.000000 0.000000 0.267096
0.000000 0.000000 0.304993
0.000000 0.000000 0.343416
0.000000 0.000000 0.382295
0.000000 0.000000 0.421614
0.000000 0.000000 0.461149
0.000000 0.000000 0.500969
0.000000 0.009810 0.541149
0.000000 0.026275 0.581643
0.000000 0.040395 0.622241
0.000000 0.051177 0.663074
0.000000 0.058404 0.703935
0.000000 0.063587 0.745067
0.000000 0.068802 0.786291
0.000000 0.074143 0.827674
0.000000 0.079659 0.869160
0.000000 0.085214 0.910676
0.000000 0.091090 0.952350
0.000000 0.097080 0.994076
0.000000 0.000000 0.000000
0.000000 0.000000 0.000000
0.000000 0.000000 0.000000
0.000000 0.000000 0.000000
0.000000 0.000000 0.000000
0.000000 0.000000 0.000000
0.000000 0.000000 0.000000
0.000000 0.000000 0.000000
0.000000 0.000000 0.033466
0.000000 0.000000 0.086715
0.000000 0.000000 0.121405
0.000000 0.000000 0.155841
0.000000 0.000000 0.191625
0.000000 0.000000 0.228248
0.000000 0.000000 0.265652
0.000000 0.000000 0.303651
0.000000 0.000000 0.342312
0.000000 0.000000 0.381222
0.000000 0.000855 0.420592
0.000000 0.017504 0.460243
0.000000 0.033058 0.500242
0.000000 0.046418 0.540325
0.000000 0.056707 0.580839
0.000000 0.064287 0.621482
0.000000 0.069802 0.662352
0.000000 0.074860 0.703369
0.000000 0.080051 0.744451
0.000000 0.085319 0.785712
0.000000 0.090681 0.826991
0.000000 0.096219 0.868515
0.000000 0.101885 0.910017
0.000000 0.107635 0.951677
0.000000 0.113562 0.993482
0.000000 0.000000 0.000000
0.000000 0.000000 0.000000
0.000000 0.000000 0.000000
0.000000 0.000000 0.000000
0.000000 0.000000 0.000000
0.000000 0.000000 0.000000
0.000000 0.000000 0.000000
0.000000 0.000000 0.000000
0.000000 0.000000 0.027841
0.000000 0.000000 0.082984
0.000000 0.000000 0.118661
0.000000 0.000000 0.153757
0.000000 0.000000 0.189826
0.000000 0.000000 0.226754
0.000000 0.004828 0.264386
0.000000 0.014206 0.302602
0.000000 0.025930 0.341302
0.000000 0.039239 0.380257
0.000000 0.051138 0.419729
0.000000 0.060633 0.459329
0.000000 0.068398 0.499381
0.000000 0.074581 0.539584
0.000000 0.079592 0.580156
0.000000 0.084391 0.620746
0.000000 0.089313 0.661626
0.000000 0.094307 0.702509
0.000000 0.099500 0.743770
0.000000 0.104662 0.784984
0.000000 0.110034 0.826357
0.000000 0.115495 0.867870
0.000000 0.120950 0.909269
0.000000 0.126635 0.951065
0.000000 0.132409 0.992711
0.000000 0.052136 0.000000
0.000000 0.052510 0.000000
0.000000 0.052984 0.000000
0.000000 0.053319 0.000000
0.000000 0.053421 0.000000
0.000000 0.053399 0.000000
0.000000 0.053125 0.000000
0.000000 0.052789 0.000000
0.000000 0.052256 0.023193
0.000000 0.051892 0.079711
0.000000 0.051838 0.116295
0.000000 0.052671 0.151939
0.000000 0.054730 0.188441
0.000000 0.058166 0.225675
0.000000 0.062797 0.263417
0.000000 0.068584 0.301578
0.000000 0.074823 0.340407
0.000000 0.080333 0.379458
0.000000 0.085206 0.418865
0.000000 0.089464 0.458702
0.000000 0.093689 0.498703
0.000000 0.098064 0.538952
0.000000 0.102569 0.579464
0.000000 0.107162 0.620073
0.000000 0.111835 0.660832
0.000000 0.116723 0.701902
0.000000 0.121592 0.742897
0.000000 0.126682 0.784298
0.000000 0.131770 0.825486
0.000000 0.137038 0.867044
0.000000 0.142411 0.908581
0.000000 0.147939 0.950369
0.000000 0.153473 0.992007
0.012327 0.093580 0.000000
0.000292 0.093929 0.000000
0.000000 0.094230 0.000000
0.000000 0.094502 0.000000
0.000000 0.094633 0.000000
0.000000 0.094689 0.000000
0.000000 0.094567 0.000000
0.000000 0.094379 0.000000
0.000000 0.094141 0.020031
0.000000 0.093870 0.077003
0.000000 0.093734 0.114255
0.000000 0.094123 0.150541
0.000000 0.095249 0.187357
0.000000 0.097174 0.224792
0.000000 0.099815 0.262604
0.000000 0.102700 0.300947
0.000000 0.105795 0.339695
0.000000 0.109075 0.378848
0.000000 0.112576 0.418313
0.000000 0.116207 0.457965
0.000000 0.120058 0.498020
0.000000 0.124077 0.538267
0.000000 0.128200 0.578635
0.000000 0.132443 0.619226
0.000000 0.136899 0.660097
0.000000 0.141430 0.701003
0.000000 0.146049 0.742105
0.000000 0.150874 0.783421
0.000000 0.155748 0.824752
0.000000 0.160771 0.866220
0.000000 0.165892 0.907808
0.000000 0.171069 0.949354
0.000000 0.176398 0.991135
0.058150 0.122656 0.000000
0.048311 0.122954 0.000000
0.038016 0.123164 0.000000
0.026063 0.123367 0.000000
0.014100 0.123533 0.000000
0.003532 0.123667 0.000000
0.000000 0.123725 0.000000
0.000000 0.123706 0.000000
0.000000 0.123781 0.017789
0.000000 0.123943 0.074893
0.000000 0.124260 0.112697
0.000000 0.125221 0.149513
0.000000 0.126798 0.186503
0.000000 0.128768 0.224106
0.000000 0.130916 0.262010
0.000000 0.133312 0.300277
0.000000 0.135954 0.339008
0.000000 0.138836 0.378176
0.000000 0.141920 0.417671
0.000000 0.145195 0.457330
0.000000 0.148620 0.497243
0.000000 0.152223 0.537510
0.000000 0.155979 0.577888
0.000000 0.159913 0.618513
0.000000 0.163978 0.659241
0.000000 0.168203 0.700219
0.000000 0.172564 0.741339
0.000000 0.177001 0.782491
0.000000 0.181600 0.823884
0.000000 0.186325 0.865358
0.000000 0.191157 0.906952
0.000000 0.196112 0.948500
0.000000 0.201220 0.990375
0.080712 0.151208 0.000000
0.073926 0.151576 0.000000
0.066907 0.151901 0.000000
0.057983 0.152353 0.000000
0.047174 0.152849 0.000000
0.035534 0.153393 0.000000
0.024469 0.154009 0.000000
0.015450 0.154673 0.000000
0.008188 0.155508 0.014334
0.003400 0.156421 0.071548
0.000000 0.157355 0.110299
0.000000 0.158509 0.147826
0.000000 0.159926 0.185409
0.000000 0.161532 0.223099
0.000000 0.163386 0.261106
0.000000 0.165423 0.299534
0.000000 0.167676 0.338273
0.000000 0.170185 0.377388
0.000000 0.172882 0.416784
0.000000 0.175756 0.456566
0.000000 0.178838 0.496449
0.000000 0.182047 0.536583
0.000000 0.185523 0.577109
0.000000 0.189043 0.617620
0.000000 0.192833 0.658478
0.000000 0.196672 0.699268
0.000000 0.200662 0.740330
0.000000 0.204871 0.781593
0.000000 0.209160 0.823006
0.000000 0.213540 0.864407
0.000000 0.218126 0.905958
0.000000 0.222807 0.947663
0.000000 0.227582 0.989398
0.081856 0.185339 0.000000
0.075573 0.185732 0.000000
0.068944 0.186096 0.000000
0.060166 0.186672 0.000000
0.049601 0.187265 0.000000
0.037674 0.187980 0.000000
0.026619 0.188763 0.000000
0.018306 0.189502 0.000000
0.013167 0.190269 0.007988
0.012582 0.191062 0.066173
0.012668 0.191844 0.107027
0.007282 0.192770 0.145640
0.000000 0.193963 0.183717
0.000000 0.195341 0.221801
0.000000 0.196840 0.260092
0.000000 0.198602 0.298609
0.000000 0.200567 0.337459
0.000000 0.202725 0.376536
0.000000 0.205088 0.415964
0.000000 0.207647 0.455605
0.000000 0.210407 0.495705
0.000000 0.213297 0.535770
0.000000 0.216393 0.576121
0.000000 0.219632 0.616793
0.000000 0.223061 0.657579
0.000000 0.226554 0.698423
0.000000 0.230303 0.739477
0.000000 0.234122 0.780638
0.000000 0.238077 0.821939
0.000000 0.242234 0.863456
0.000000 0.246474 0.905029
0.000000 0.250846 0.946699
0.000000 0.255412 0.988542
0.070742 0.221830 0.000000
0.064980 0.222188 0.000000
0.059166 0.222425 0.000000
0.051434 0.222872 0.000000
0.042471 0.223330 0.000000
0.033325 0.223848 0.000000
0.025841 0.224465 0.000000
0.021205 0.225078 0.000000
0.020581 0.225640 0.000000
0.024105 0.226234 0.058432
0.027845 0.226914 0.102466
0.026293 0.227756 0.142652
0.018105 0.228713 0.181502
0.002026 0.229868 0.220174
0.000000 0.231197 0.258735
0.000000 0.232745 0.297521
0.000000 0.234422 0.336443
0.000000 0.236300 0.375625
0.000000 0.238358 0.415093
0.000000 0.240649 0.454851
0.000000 0.243075 0.494685
0.000000 0.245710 0.534926
0.000000 0.248442 0.575215
0.000000 0.251371 0.615803
0.000000 0.254507 0.656622
0.000000 0.257703 0.697488
0.000000 0.261111 0.738551
0.000000 0.264689 0.779711
0.000000 0.268350 0.821005
0.000000 0.272192 0.862452
0.000000 0.276140 0.904059
0.000000 0.280256 0.945793
0.000000 0.284423 0.987365
0.061256 0.258530 0.000000
0.056526 0.258771 0.000000
0.051654 0.258978 0.000000
0.045483 0.259314 0.000000
0.038765 0.259667 0.000000
0.032764 0.260099 0.000000
0.028958 0.260561 0.000000
0.028220 0.261040 0.000000
0.031483 0.261512 0.000000
0.039097 0.261965 0.047341
0.045839 0.262536 0.096410
0.047697 0.263212 0.138588
0.043901 0.264065 0.178804
0.032674 0.265058 0.217972
0.013227 0.266151 0.257009
0.000000 0.267520 0.295999
0.000000 0.268968 0.335156
0.000000 0.270611 0.374466
0.000000 0.272453 0.413979
0.000000 0.274461 0.453772
0.000000 0.276658 0.493805
0.000000 0.278936 0.533914
0.000000 0.281488 0.574335
0.000000 0.284117 0.614813
0.000000 0.286924 0.655554
0.000000 0.289920 0.696493
0.000000 0.293034 0.737585
0.000000 0.296258 0.778619
0.000000 0.299669 0.820007
0.000000 0.303221 0.861452
0.000000 0.306859 0.902995
0.000000 0.310722 0.944712
0.000000 0.314637 0.986354
0.055466 0.295459 0.000000
0.051899 0.295603 0.000000
0.048234 0.295799 0.000000
0.044008 0.296039 0.000000
0.039923 0.296310 0.000000
0.037018 0.296584 0.000000
0.036568 0.296990 0.000000
0.039316 0.297359 0.000000
0.046119 0.297731 0.000000
0.055978 0.298117 0.031701
0.063752 0.298566 0.088420
0.067430 0.299140 0.133625
0.067383 0.299887 0.175210
0.062249 0.300765 0.215437
0.050576 0.301686 0.254932
0.028482 0.302897 0.294246
0.000000 0.304156 0.333685
0.000000 0.305642 0.373145
0.000000 0.307255 0.412768
0.000000 0.309001 0.452599
0.000000 0.310987 0.492743
0.000000 0.313036 0.532785
0.000000 0.315307 0.573291
0.000000 0.317718 0.613909
0.000000 0.320284 0.654628
0.000000 0.322935 0.695494
0.000000 0.325816 0.736526
0.000000 0.328791 0.777682
0.000000 0.331905 0.818895
0.000000 0.335217 0.860441
0.000000 0.338648 0.902022
0.000000 0.342141 0.943589
0.000000 0.345864 0.985404
0.054603 0.332457 0.000000
0.052096 0.332605 0.000000
0.050166 0.332702 0.000000
0.047845 0.332951 0.000000
0.046194 0.333147 0.000000
0.046250 0.333431 0.000000
0.048887 0.333696 0.000000
0.054113 0.334033 0.000000
0.062692 0.334302 0.000000
0.072999 0.334618 0.012306
0.081010 0.335028 0.078177
0.086188 0.335541 0.127378
0.088063 0.336097 0.170881
0.086400 0.336857 0.212178
0.080546 0.337738 0.252451
0.068641 0.338694 0.292153
0.047388 0.339851 0.331916
0.010874 0.341155 0.371609
0.000000 0.342601 0.411486
0.000000 0.344163 0.451357
0.000000 0.345911 0.491528
0.000000 0.347795 0.531759
0.000000 0.349835 0.572196
0.000000 0.352007 0.612708
0.000000 0.354346 0.653570
0.000000 0.356774 0.694417
0.000000 0.359365 0.735465
0.000000 0.362166 0.776652
0.000000 0.365028 0.817850
0.000000 0.368111 0.859458
0.000000 0.371190 0.900912
0.000000 0.374523 0.942613
0.000000 0.377890 0.984281
0.059345 0.369733 0.000000
0.058205 0.369792 0.000000
0.057303 0.369904 0.000000
0.056939 0.370068 0.000000
0.057615 0.370264 0.000000
0.059756 0.370405 0.000000
0.063984 0.370633 0.000000
0.070833 0.370920 0.000000
0.080145 0.371174 0.000000
0.090321 0.371416 0.000000
0.098554 0.371756 0.064507
0.104122 0.372154 0.119535
0.107533 0.372729 0.165640
0.107781 0.373375 0.208324
0.105290 0.374124 0.249371
0.098531 0.375030 0.289822
0.086247 0.376009 0.329947
0.066914 0.377176 0.369902
0.031116 0.378436 0.409840
0.000000 0.379834 0.449939
0.000000 0.381399 0.490131
0.000000 0.383096 0.530458
0.000000 0.384961 0.570944
0.000000 0.386908 0.611520
0.000000 0.389002 0.652276
0.000000 0.391256 0.693212
0.000000 0.393689 0.734329
0.000000 0.396189 0.775536
0.000000 0.398878 0.816913
0.000000 0.401629 0.858220
0.000000 0.404567 0.899829
0.000000 0.407632 0.941496
0.000000 0.410784 0.983212
0.069354 0.407086 0.000000
0.069218 0.407232 0.000000
0.069450 0.407259 0.000000
0.070404 0.407346 0.000000
0.072249 0.407569 0.000000
0.075721 0.407732 0.000000
0.081172 0.407902 0.000000
0.088702 0.408071 0.000000
0.098192 0.408225 0.000000
0.108007 0.408463 0.000000
0.116055 0.408737 0.045307
0.122136 0.409144 0.109980
0.126288 0.409587 0.159208
0.128096 0.410163 0.203738
0.127458 0.410878 0.245846
0.123634 0.411657 0.286997
0.116282 0.412490 0.327538
0.103999 0.413565 0.367979
0.085334 0.414692 0.408124
0.053484 0.415990 0.448459
0.000000 0.417342 0.488724
0.000000 0.418858 0.529054
0.000000 0.420537 0.569627
0.000000 0.422283 0.610246
0.000000 0.424300 0.651231
0.000000 0.426304 0.692060
0.000000 0.428456 0.733184
0.000000 0.430808 0.774317
0.000000 0.433243 0.815660
0.000000 0.435844 0.857150
0.000000 0.438513 0.898547
0.000000 0.441348 0.940284
0.000000 0.444310 0.982002
0.083397 0.444654 0.000000
0.083930 0.444720 0.000000
0.085166 0.444823 0.000000
0.086672 0.444934 0.000000
0.089449 0.445002 0.000000
0.093693 0.445101 0.000000
0.099796 0.445302 0.000000
0.107444 0.445438 0.000000
0.116969 0.445562 0.000000
0.126083 0.445802 0.000000
0.133981 0.446075 0.018899
0.140142 0.446416 0.097932
0.144760 0.446792 0.151722
0.147684 0.447296 0.198251
0.148339 0.447867 0.241764
0.146502 0.448596 0.283712
0.141924 0.449382 0.324863
0.133962 0.450237 0.365542
0.121930 0.451311 0.406183
0.103463 0.452400 0.446602
0.075329 0.453711 0.487149
0.022075 0.455122 0.527747
0.000000 0.456597 0.568308
0.000000 0.458234 0.609089
0.000000 0.459963 0.649888
0.000000 0.461853 0.690802
0.000000 0.463825 0.731900
0.000000 0.465994 0.773126
0.000000 0.468257 0.814542
0.000000 0.470583 0.855854
0.000000 0.473092 0.897438
0.000000 0.475718 0.939054
0.000000 0.478439 0.980847
0.100514 0.482390 0.000000
0.101565 0.482459 0.000000
0.102901 0.482500 0.000000
0.105162 0.482608 0.000000
0.108301 0.482701 0.000000
0.112909 0.482741 0.000000
0.119301 0.482884 0.000000
0.127056 0.482975 0.000000
0.136131 0.483161 0.000000
0.144596 0.483307 0.000000
0.152024 0.483503 0.000000
0.158444 0.483826 0.082613
0.163402 0.484215 0.142550
0.166783 0.484655 0.192006
0.168461 0.485158 0.236993
0.167864 0.485744 0.280001
0.165374 0.486463 0.321748
0.160136 0.487337 0.363127
0.151939 0.488192 0.403917
0.139501 0.489227 0.444639
0.121960 0.490410 0.485305
0.095469 0.491602 0.526000
0.052141 0.493022 0.566751
0.000000 0.494454 0.607504
0.000000 0.496073 0.648453
0.000000 0.497847 0.689625
0.000000 0.499617 0.730578
0.000000 0.501585 0.771921
0.000000 0.503716 0.813226
0.000000 0.505864 0.854611
0.000000 0.508208 0.896251
0.000000 0.510652 0.937910
0.000000 0.513189 0.979583
0.119195 0.520297 0.000000
0.120687 0.520274 0.000000
0.122352 0.520319 0.000000
0.124809 0.520445 0.000000
0.128391 0.520454 0.000000
0.133134 0.520522 0.000000
0.139308 0.520626 0.000000
0.147220 0.520743 0.000000
0.155296 0.520838 0.000000
0.163441 0.521038 0.000000
0.170607 0.521219 0.000000
0.176789 0.521464 0.061647
0.181769 0.521774 0.131647
0.185734 0.522211 0.184568
0.188121 0.522631 0.231552
0.188867 0.523211 0.275678
0.187651 0.523868 0.318312
0.184174 0.524601 0.360209
0.178549 0.525395 0.401379
0.169883 0.526354 0.442473
0.157138 0.527331 0.483379
0.139992 0.528535 0.524317
0.115198 0.529761 0.565137
0.077414 0.531141 0.606062
0.003079 0.532612 0.647055
0.000000 0.534164 0.688144
0.000000 0.535842 0.729350
0.000000 0.537685 0.770628
0.000000 0.539604 0.811900
0.000000 0.541638 0.853467
0.000000 0.543760 0.895036
0.000000 0.545990 0.936604
0.000000 0.548415 0.978411
0.139677 0.558298 0.000000
0.141018 0.558298 0.000000
0.142800 0.558351 0.000000
0.145405 0.558400 0.000000
0.149115 0.558426 0.000000
0.154035 0.558508 0.000000
0.160040 0.558562 0.000000
0.167444 0.558648 0.000000
0.175085 0.558783 0.000000
0.182377 0.558893 0.000000
0.189155 0.559063 0.000000
0.195454 0.559276 0.030260
0.200607 0.559570 0.118283
0.204697 0.559928 0.175949
0.207429 0.560367 0.225282
0.208897 0.560866 0.270847
0.209008 0.561421 0.314379
0.206882 0.562090 0.356831
0.203055 0.562807 0.398617
0.196779 0.563709 0.440008
0.187495 0.564612 0.481228
0.175196 0.565666 0.522299
0.157989 0.566831 0.563394
0.134577 0.568075 0.604448
0.100923 0.569390 0.645515
0.039399 0.570818 0.686633
0.000000 0.572353 0.727828
0.000000 0.574044 0.769210
0.000000 0.575845 0.810558
0.000000 0.577689 0.852089
0.000000 0.579684 0.893690
0.000000 0.581796 0.935272
0.000000 0.584015 0.977138
0.160656 0.596415 0.000000
0.162293 0.596408 0.000000
0.164110 0.596470 0.000000
0.166606 0.596543 0.000000
0.170158 0.596506 0.000000
0.175097 0.596608 0.000000
0.181186 0.596679 0.000000
0.187998 0.596723 0.000000
0.195083 0.596819 0.000000
0.201776 0.596905 0.000000
0.208273 0.597047 0.000000
0.214260 0.597250 0.000000
0.219450 0.597530 0.101737
0.223817 0.597873 0.165832
0.226958 0.598212 0.218023
0.228937 0.598714 0.265393
0.229556 0.599208 0.309988
0.228739 0.599775 0.353118
0.226142 0.600517 0.395540
0.221696 0.601241 0.437374
0.214896 0.602066 0.478822
0.205729 0.603049 0.520156
0.192911 0.604064 0.561345
0.176009 0.605250 0.602647
0.153731 0.606512 0.643904
0.122525 0.607786 0.685080
0.072665 0.609254 0.726377
0.000000 0.610802 0.767740
0.000000 0.612395 0.809099
0.000000 0.614164 0.850642
0.000000 0.616020 0.892292
0.000000 0.618012 0.934056
0.000000 0.619987 0.975696
0.182282 0.634692 0.000000
0.183859 0.634696 0.000000
0.185814 0.634667 0.000000
0.188366 0.634749 0.000000
0.192030 0.634717 0.000000
0.196765 0.634758 0.000000
0.202492 0.634869 0.000000
0.208772 0.634858 0.000000
0.215154 0.635017 0.000000
0.221513 0.635060 0.000000
0.227670 0.635263 0.000000
0.233331 0.635455 0.000000
0.238403 0.635624 0.080413
0.242853 0.635954 0.154048
0.246347 0.636278 0.209725
0.248789 0.636680 0.259006
0.250057 0.637160 0.305117
0.250055 0.637730 0.349125
0.248527 0.638290 0.392133
0.245242 0.639042 0.434488
0.240416 0.639768 0.476226
0.233118 0.640703 0.517873
0.223455 0.641626 0.559283
0.210794 0.642640 0.600647
0.194468 0.643840 0.641980
0.172709 0.645061 0.683327
0.143493 0.646357 0.724817
0.100084 0.647783 0.766184
0.013072 0.649290 0.807601
0.000000 0.650904 0.849238
0.000000 0.652639 0.890957
0.000000 0.654454 0.932617
0.000000 0.656406 0.974374
0.204481 0.673005 0.000000
0.205989 0.673021 0.000000
0.207981 0.673090 0.000000
0.210432 0.673096 0.000000
0.214122 0.673072 0.000000
0.218703 0.673138 0.000000
0.223888 0.673195 0.000000
0.229548 0.673231 0.000000
0.235456 0.673249 0.000000
0.241260 0.673355 0.000000
0.247252 0.673514 0.000000
0.252613 0.673682 0.000000
0.257759 0.673907 0.049366
0.261982 0.674143 0.139938
0.265780 0.674435 0.200377
0.268555 0.674824 0.252042
0.270200 0.675309 0.299556
0.270750 0.675783 0.344679
0.270246 0.676326 0.388374
0.268089 0.676980 0.431258
0.264582 0.677715 0.473424
0.258923 0.678471 0.515364
0.251334 0.679410 0.557119
0.241316 0.680357 0.598663
0.228785 0.681387 0.640026
0.212327 0.682529 0.681577
0.191360 0.683769 0.723074
0.164060 0.685099 0.764556
0.124961 0.686464 0.806117
0.058169 0.688019 0.847805
0.000000 0.689591 0.889461
0.000000 0.691257 0.931186
0.000000 0.693039 0.972989
0.227165 0.711520 0.000000
0.228559 0.711550 0.000000
0.230312 0.711546 0.000000
0.232946 0.711546 0.000000
0.236396 0.711550 0.000000
0.240443 0.711561 0.000000
0.245387 0.711633 0.000000
0.250336 0.711632 0.000000
0.255998 0.711679 0.000000
0.261478 0.711832 0.000000
0.266948 0.711968 0.000000
0.272188 0.712093 0.000000
0.277145 0.712292 0.003529
0.281442 0.712498 0.122543
0.285192 0.712781 0.189455
0.288261 0.713140 0.244260
0.290398 0.713506 0.293356
0.291469 0.713967 0.339672
0.291506 0.714517 0.384162
0.290158 0.715074 0.427664
0.287365 0.715737 0.470401
0.283191 0.716483 0.512695
0.277632 0.717303 0.554612
0.269730 0.718158 0.596378
0.259421 0.719128 0.638036
0.246579 0.720184 0.679673
0.230623 0.721341 0.721202
0.210422 0.722599 0.762824
0.184248 0.723868 0.804490
