storage/filter_uploads/cb5cadbf-be48-46bc-a192-ca9d9a137b11.cube
TITLE "Python Generated LUT"
LUT_3D_SIZE 5
0.000000 0.000000 0.000000
0.000000 0.000000 0.068566
0.000000 0.000000 0.348353
0.000000 0.000000 0.665338
0.000000 0.050881 0.995716
0.000000 0.052136 0.000000
0.000000 0.052256 0.023193
0.000000 0.074823 0.340407
0.000000 0.111835 0.660832
0.000000 0.153473 0.992007
0.054603 0.332457 0.000000
0.062692 0.334302 0.000000
0.047388 0.339851 0.331916
0.000000 0.354346 0.653570
0.000000 0.377890 0.984281
0.182282 0.634692 0.000000
0.215154 0.635017 0.000000
0.250057 0.637160 0.305117
0.194468 0.643840 0.641980
0.000000 0.656406 0.974374
0.363988 0.944255 0.000000
0.382080 0.944385 0.000000
0.411007 0.945490 0.239318
0.411701 0.949049 0.622472
0.340178 0.956306 0.961559
0.142934 0.000000 0.000000
0.092032 0.000000 0.046884
0.000000 0.000000 0.343695
0.000000 0.000000 0.663054
0.000000 0.001969 0.994100
0.160833 0.045405 0.000000
0.118899 0.057444 0.018711
0.000000 0.072195 0.339003
0.000000 0.102450 0.659565
0.000000 0.145275 0.990852
0.194698 0.337828 0.000000
0.201684 0.339179 0.000000
0.207132 0.343677 0.330655
0.000000 0.356835 0.652602
0.000000 0.379310 0.983378
0.290528 0.637419 0.000000
0.311716 0.637680 0.000000
0.337362 0.639624 0.303427
0.304423 0.646011 0.641242
0.005258 0.658281 0.973774
0.435410 0.945891 0.000000
0.449976 0.946065 0.000000
0.474444 0.947119 0.236894
0.476004 0.950677 0.621724
0.419677 0.957804 0.961023
0.301757 0.000000 0.000000
0.284704 0.000000 0.015051
0.275346 0.000000 0.337289
0.090468 0.000000 0.658354
0.000000 0.000000 0.989910
0.334508 0.042191 0.000000
0.328728 0.044275 0.008893
0.329154 0.038377 0.335551
0.224415 0.067853 0.656014
0.000000 0.119580 0.987329
0.401942 0.350387 0.000000
0.409402 0.350874 0.000000
0.421759 0.353239 0.326558
0.377019 0.363495 0.649826
0.162686 0.383542 0.980912
0.490263 0.645406 0.000000
0.502797 0.645488 0.000000
0.520516 0.647080 0.298072
0.507687 0.652809 0.638838
0.427856 0.664232 0.971807
0.602713 0.951096 0.000000
0.612650 0.951243 0.000000
0.630292 0.952202 0.228769
0.633299 0.955592 0.619150
0.598498 0.962517 0.959362
0.553651 0.000000 0.000000
0.554280 0.000000 0.003488
0.566053 0.000000 0.332007
0.538651 0.000000 0.652219
0.434977 0.000000 0.984056
0.579832 0.000000 0.000000
0.582930 0.000000 0.000000
0.595039 0.000000 0.329707
0.572150 0.000000 0.650602
0.482217 0.073066 0.981990
0.641683 0.365590 0.000000
0.648731 0.365312 0.000000
0.661941 0.366076 0.318918
0.648965 0.373635 0.645254
0.585857 0.390894 0.976671
0.723211 0.658391 0.000000
0.731770 0.658305 0.000000
0.745474 0.659516 0.287829
0.742527 0.664294 0.634250
0.704114 0.674641 0.968394
0.819397 0.960458 0.000000
0.826310 0.960524 0.000000
0.839349 0.961432 0.213116
0.843410 0.964559 0.614412
0.823118 0.971169 0.956354
0.833514 0.000000 0.000000
0.837648 0.000000 0.000000
0.850588 0.000000 0.323369
0.845540 0.000000 0.645220
0.807030 0.000000 0.976823
0.852527 0.000000 0.000000
0.857436 0.000000 0.000000
0.870031 0.000000 0.319948
0.865951 0.000000 0.643809
0.830120 0.012922 0.975364
0.902901 0.382628 0.000000
0.909059 0.381972 0.000000
0.921146 0.381903 0.306480
0.919580 0.387727 0.638516
0.890567 0.402839 0.970996
0.974987 0.675684 0.000000
0.981412 0.675513 0.000000
0.992513 0.676279 0.270655
0.994433 0.680341 0.627515
0.974364 0.689485 0.963216
1.000000 0.973985 0.000000
1.000000 0.974104 0.000000
1.000000 0.974924 0.185463
1.000000 0.977748 0.607148
1.000000 0.983902 0.951486
